(G-CODE GENERATED BY FLATCAM v8.99 - www.flatcam.org - Version Date: 2019/12/15)

(Name: Gerber_BottomLayer.GBL_iso_cnc_1)
(Type: G-code from Geometry)
(Units: MM)

(Created on Wednesday, 01 April 2020 at 08:22)

(TOOL DIAMETER: 0.1 mm)
(Feedrate: 500.0 mm/min)
(Feedrate_Z: 60.0 mm/min)
(Feedrate rapids 1500.0 mm/min)

(Z_Cut: -0.8 mm)
(Z_Move: 2.0 mm)
(Z Toolchange: 15.0 mm)
(X,Y Toolchange: 0.0000, 0.0000 mm)
(Z Start: None mm)
(Z End: 10.0 mm)
(Steps per circle: 64)
(Preprocessor Geometry: default)

(X range:    0.3330 ...   76.2440  mm)
(Y range:    0.2070 ...   76.2460  mm)

(Spindle Speed: None RPM)
G21
G90
G94




G01 F500.00
G00 Z2.0000

M03
G00 X9.7200 Y4.9108
G01 F60.00
G01 Z-0.8000
G01 F500.00
G01 X12.9552 Y4.9108
G01 X13.0079 Y4.9134
G01 X13.0613 Y4.9213
G01 X13.1137 Y4.9344
G01 X13.1623 Y4.9518
G01 X13.2155 Y4.9769
G01 X13.2597 Y5.0035
G01 X13.3031 Y5.0357
G01 X13.3431 Y5.0719
G01 X28.3327 Y20.0615
G01 X28.3702 Y20.0522
G01 X28.4721 Y20.0371
G01 X28.5775 Y20.0321
G01 X28.6779 Y20.0371
G01 X28.7774 Y20.0518
G01 X28.8798 Y20.0772
G01 X28.9768 Y20.1119
G01 X29.0721 Y20.1572
G01 X29.1583 Y20.2090
G01 X29.2392 Y20.2688
G01 X29.3175 Y20.3395
G01 X29.3867 Y20.4159
G01 X29.4480 Y20.4987
G01 X29.5010 Y20.5870
G01 X29.5451 Y20.6802
G01 X29.5798 Y20.7772
G01 X29.6048 Y20.8772
G01 X29.6199 Y20.9791
G01 X29.6249 Y21.0795
G01 X29.6199 Y21.1849
G01 X29.6052 Y21.2844
G01 X29.5790 Y21.3891
G01 X29.5451 Y21.4838
G01 X29.5010 Y21.5770
G01 X29.4480 Y21.6653
G01 X29.3867 Y21.7481
G01 X29.3175 Y21.8245
G01 X29.2411 Y21.8937
G01 X29.1583 Y21.9550
G01 X29.0700 Y22.0080
G01 X28.9768 Y22.0521
G01 X28.8798 Y22.0868
G01 X28.7798 Y22.1118
G01 X28.6755 Y22.1271
G01 X28.5750 Y22.1320
G01 X28.4721 Y22.1269
G01 X28.3702 Y22.1118
G01 X28.2679 Y22.0860
G01 X28.1732 Y22.0521
G01 X28.0779 Y22.0068
G01 X27.9896 Y21.9536
G01 X27.9089 Y21.8937
G01 X27.8343 Y21.8262
G01 X27.7633 Y21.7481
G01 X27.7006 Y21.6633
G01 X27.6490 Y21.5770
G01 X27.6059 Y21.4861
G01 X27.5702 Y21.3868
G01 X27.5448 Y21.2844
G01 X27.5301 Y21.1849
G01 X27.5251 Y21.0845
G01 X27.5301 Y20.9791
G01 X27.5452 Y20.8772
G01 X27.5545 Y20.8397
G01 X12.7261 Y6.0112
G01 X9.7200 Y6.0112
G01 X9.7080 Y6.0584
G01 X9.6400 Y6.2477
G01 X9.5549 Y6.4274
G01 X9.4515 Y6.5999
G01 X9.3317 Y6.7615
G01 X9.1983 Y6.9088
G01 X9.0456 Y7.0472
G01 X8.8859 Y7.1655
G01 X8.7134 Y7.2689
G01 X8.5315 Y7.3549
G01 X8.3444 Y7.4220
G01 X8.1445 Y7.4720
G01 X7.9479 Y7.5011
G01 X7.7470 Y7.5110
G01 X7.5461 Y7.5011
G01 X7.3495 Y7.4720
G01 X7.1496 Y7.4220
G01 X6.9625 Y7.3549
G01 X6.7806 Y7.2689
G01 X6.6081 Y7.1655
G01 X6.4484 Y7.0472
G01 X6.2957 Y6.9088
G01 X6.1623 Y6.7615
G01 X6.0425 Y6.5999
G01 X5.9391 Y6.4274
G01 X5.8540 Y6.2477
G01 X5.7853 Y6.0561
G01 X5.7364 Y5.8609
G01 X5.7069 Y5.6619
G01 X5.6970 Y5.4610
G01 X5.7069 Y5.2601
G01 X5.7364 Y5.0611
G01 X5.7853 Y4.8659
G01 X5.8531 Y4.6765
G01 X5.9391 Y4.4946
G01 X6.0425 Y4.3221
G01 X6.1623 Y4.1605
G01 X6.2974 Y4.0114
G01 X6.4465 Y3.8763
G01 X6.6081 Y3.7565
G01 X6.7806 Y3.6531
G01 X6.9625 Y3.5671
G01 X7.1519 Y3.4993
G01 X7.3471 Y3.4504
G01 X7.5461 Y3.4209
G01 X7.7470 Y3.4110
G01 X7.9479 Y3.4209
G01 X8.1469 Y3.4504
G01 X8.3421 Y3.4993
G01 X8.5315 Y3.5671
G01 X8.7134 Y3.6531
G01 X8.8859 Y3.7565
G01 X9.0475 Y3.8763
G01 X9.1966 Y4.0114
G01 X9.3317 Y4.1605
G01 X9.4515 Y4.3221
G01 X9.5549 Y4.4946
G01 X9.6409 Y4.6765
G01 X9.7080 Y4.8636
G01 X9.7200 Y4.9108
G00 Z2.0000
G00 X9.7200 Y9.9908
G01 F60.00
G01 Z-0.8000
G01 F500.00
G01 X15.4952 Y9.9908
G01 X15.5479 Y9.9934
G01 X15.5989 Y10.0009
G01 X15.6537 Y10.0144
G01 X15.7046 Y10.0326
G01 X15.7512 Y10.0546
G01 X15.8017 Y10.0849
G01 X15.8431 Y10.1157
G01 X15.8831 Y10.1519
G01 X28.3327 Y22.6015
G01 X28.3702 Y22.5922
G01 X28.4721 Y22.5771
G01 X28.5775 Y22.5721
G01 X28.6779 Y22.5771
G01 X28.7774 Y22.5918
G01 X28.8798 Y22.6172
G01 X28.9768 Y22.6519
G01 X29.0721 Y22.6972
G01 X29.1583 Y22.7490
G01 X29.2392 Y22.8088
G01 X29.3175 Y22.8795
G01 X29.3867 Y22.9559
G01 X29.4466 Y23.0366
G01 X29.5021 Y23.1292
G01 X29.5451 Y23.2202
G01 X29.5798 Y23.3172
G01 X29.6048 Y23.4172
G01 X29.6199 Y23.5191
G01 X29.6250 Y23.6208
G01 X29.6199 Y23.7249
G01 X29.6048 Y23.8268
G01 X29.5804 Y23.9244
G01 X29.5441 Y24.0261
G01 X29.5010 Y24.1170
G01 X29.4466 Y24.2074
G01 X29.3867 Y24.2881
G01 X29.3157 Y24.3662
G01 X29.2392 Y24.4352
G01 X29.1583 Y24.4950
G01 X29.0721 Y24.5468
G01 X28.9768 Y24.5921
G01 X28.8798 Y24.6268
G01 X28.7798 Y24.6518
G01 X28.6779 Y24.6669
G01 X28.5750 Y24.6720
G01 X28.4721 Y24.6669
G01 X28.3702 Y24.6518
G01 X28.2679 Y24.6260
G01 X28.1732 Y24.5921
G01 X28.0779 Y24.5468
G01 X27.9896 Y24.4936
G01 X27.9089 Y24.4337
G01 X27.8343 Y24.3662
G01 X27.7633 Y24.2881
G01 X27.7006 Y24.2033
G01 X27.6490 Y24.1170
G01 X27.6059 Y24.0261
G01 X27.5702 Y23.9268
G01 X27.5448 Y23.8244
G01 X27.5301 Y23.7249
G01 X27.5251 Y23.6245
G01 X27.5301 Y23.5191
G01 X27.5452 Y23.4172
G01 X27.5545 Y23.3797
G01 X15.2661 Y11.0912
G01 X9.7200 Y11.0912
G01 X9.7080 Y11.1384
G01 X9.6400 Y11.3277
G01 X9.5549 Y11.5074
G01 X9.4515 Y11.6799
G01 X9.3317 Y11.8415
G01 X9.1983 Y11.9888
G01 X9.0456 Y12.1272
G01 X8.8859 Y12.2455
G01 X8.7134 Y12.3489
G01 X8.5315 Y12.4349
G01 X8.3444 Y12.5020
G01 X8.1445 Y12.5520
G01 X7.9479 Y12.5811
G01 X7.7470 Y12.5910
G01 X7.5461 Y12.5811
G01 X7.3495 Y12.5520
G01 X7.1496 Y12.5020
G01 X6.9625 Y12.4349
G01 X6.7806 Y12.3489
G01 X6.6081 Y12.2455
G01 X6.4484 Y12.1272
G01 X6.2957 Y11.9888
G01 X6.1623 Y11.8415
G01 X6.0425 Y11.6799
G01 X5.9391 Y11.5074
G01 X5.8540 Y11.3277
G01 X5.7853 Y11.1361
G01 X5.7364 Y10.9409
G01 X5.7069 Y10.7419
G01 X5.6970 Y10.5410
G01 X5.7069 Y10.3401
G01 X5.7364 Y10.1411
G01 X5.7853 Y9.9459
G01 X5.8531 Y9.7565
G01 X5.9391 Y9.5746
G01 X6.0425 Y9.4021
G01 X6.1623 Y9.2405
G01 X6.2974 Y9.0914
G01 X6.4465 Y8.9563
G01 X6.6081 Y8.8365
G01 X6.7806 Y8.7331
G01 X6.9625 Y8.6471
G01 X7.1519 Y8.5793
G01 X7.3471 Y8.5304
G01 X7.5461 Y8.5009
G01 X7.7470 Y8.4910
G01 X7.9479 Y8.5009
G01 X8.1469 Y8.5304
G01 X8.3421 Y8.5793
G01 X8.5315 Y8.6471
G01 X8.7134 Y8.7331
G01 X8.8859 Y8.8365
G01 X9.0475 Y8.9563
G01 X9.1966 Y9.0914
G01 X9.3317 Y9.2405
G01 X9.4515 Y9.4021
G01 X9.5549 Y9.5746
G01 X9.6409 Y9.7565
G01 X9.7080 Y9.9436
G01 X9.7200 Y9.9908
G00 Z2.0000
G00 X8.7530 Y17.4052
G01 F60.00
G01 Z-0.8000
G01 F500.00
G01 X8.7112 Y17.4300
G01 X8.5315 Y17.5149
G01 X8.3421 Y17.5827
G01 X8.1469 Y17.6316
G01 X7.9479 Y17.6611
G01 X7.7470 Y17.6710
G01 X7.5461 Y17.6611
G01 X7.3471 Y17.6316
G01 X7.1519 Y17.5827
G01 X6.9625 Y17.5149
G01 X6.7806 Y17.4289
G01 X6.6081 Y17.3255
G01 X6.4465 Y17.2057
G01 X6.2974 Y17.0706
G01 X6.1623 Y16.9215
G01 X6.0425 Y16.7599
G01 X5.9391 Y16.5874
G01 X5.8531 Y16.4055
G01 X5.7853 Y16.2161
G01 X5.7364 Y16.0209
G01 X5.7069 Y15.8219
G01 X5.6970 Y15.6210
G01 X5.7069 Y15.4201
G01 X5.7364 Y15.2211
G01 X5.7853 Y15.0259
G01 X5.8531 Y14.8365
G01 X5.9391 Y14.6546
G01 X6.0425 Y14.4821
G01 X6.1623 Y14.3205
G01 X6.2974 Y14.1714
G01 X6.4465 Y14.0363
G01 X6.6081 Y13.9165
G01 X6.7806 Y13.8131
G01 X6.9625 Y13.7271
G01 X7.1496 Y13.6600
G01 X7.3495 Y13.6100
G01 X7.5461 Y13.5809
G01 X7.7470 Y13.5710
G01 X7.9479 Y13.5809
G01 X8.1445 Y13.6100
G01 X8.3444 Y13.6600
G01 X8.5315 Y13.7271
G01 X8.7134 Y13.8131
G01 X8.8879 Y13.9179
G01 X9.0475 Y14.0363
G01 X9.1966 Y14.1714
G01 X9.3317 Y14.3205
G01 X9.4501 Y14.4801
G01 X9.5560 Y14.6568
G01 X9.6409 Y14.8365
G01 X9.7087 Y15.0259
G01 X9.7576 Y15.2211
G01 X9.7868 Y15.4176
G01 X9.7969 Y15.6235
G01 X9.7871 Y15.8219
G01 X9.7576 Y16.0209
G01 X9.7087 Y16.2161
G01 X9.6418 Y16.4032
G01 X9.5560 Y16.5852
G01 X9.5312 Y16.6270
G01 X18.5159 Y25.6118
G01 X27.6820 Y25.6118
G01 X27.7020 Y25.5787
G01 X27.7633 Y25.4959
G01 X27.8343 Y25.4178
G01 X27.9089 Y25.3503
G01 X27.9896 Y25.2904
G01 X28.0822 Y25.2349
G01 X28.1732 Y25.1919
G01 X28.2679 Y25.1580
G01 X28.3702 Y25.1322
G01 X28.4745 Y25.1169
G01 X28.5750 Y25.1120
G01 X28.6779 Y25.1171
G01 X28.7798 Y25.1322
G01 X28.8821 Y25.1580
G01 X28.9768 Y25.1919
G01 X29.0678 Y25.2349
G01 X29.1583 Y25.2890
G01 X29.2411 Y25.3503
G01 X29.3192 Y25.4213
G01 X29.3867 Y25.4959
G01 X29.4466 Y25.5766
G01 X29.4998 Y25.6649
G01 X29.5451 Y25.7602
G01 X29.5798 Y25.8572
G01 X29.6048 Y25.9572
G01 X29.6201 Y26.0615
G01 X29.6249 Y26.1645
G01 X29.6199 Y26.2649
G01 X29.6052 Y26.3644
G01 X29.5798 Y26.4668
G01 X29.5451 Y26.5638
G01 X29.5010 Y26.6570
G01 X29.4494 Y26.7433
G01 X29.3867 Y26.8281
G01 X29.3175 Y26.9045
G01 X29.2430 Y26.9721
G01 X29.1583 Y27.0350
G01 X29.0700 Y27.0880
G01 X28.9791 Y27.1311
G01 X28.8798 Y27.1668
G01 X28.7798 Y27.1918
G01 X28.6804 Y27.2066
G01 X28.5750 Y27.2120
G01 X28.4721 Y27.2069
G01 X28.3678 Y27.1913
G01 X28.2702 Y27.1668
G01 X28.1755 Y27.1330
G01 X28.0800 Y27.0880
G01 X27.9896 Y27.0336
G01 X27.9089 Y26.9737
G01 X27.8343 Y26.9062
G01 X27.7633 Y26.8281
G01 X27.7020 Y26.7453
G01 X27.6820 Y26.7122
G01 X18.2880 Y26.7122
G01 X18.2341 Y26.7096
G01 X18.1807 Y26.7017
G01 X18.1283 Y26.6886
G01 X18.0774 Y26.6704
G01 X18.0286 Y26.6473
G01 X17.9823 Y26.6195
G01 X17.9389 Y26.5873
G01 X17.8989 Y26.5511
G01 X8.7530 Y17.4052
G00 Z2.0000
G00 X8.7530 Y22.4852
G01 F60.00
G01 Z-0.8000
G01 F500.00
G01 X8.7112 Y22.5100
G01 X8.5315 Y22.5949
G01 X8.3421 Y22.6627
G01 X8.1469 Y22.7116
G01 X7.9479 Y22.7411
G01 X7.7470 Y22.7510
G01 X7.5461 Y22.7411
G01 X7.3471 Y22.7116
G01 X7.1519 Y22.6627
G01 X6.9625 Y22.5949
G01 X6.7806 Y22.5089
G01 X6.6081 Y22.4055
G01 X6.4465 Y22.2857
G01 X6.2974 Y22.1506
G01 X6.1623 Y22.0015
G01 X6.0425 Y21.8399
G01 X5.9391 Y21.6674
G01 X5.8531 Y21.4855
G01 X5.7853 Y21.2961
G01 X5.7364 Y21.1009
G01 X5.7069 Y20.9019
G01 X5.6970 Y20.7010
G01 X5.7069 Y20.5001
G01 X5.7364 Y20.3011
G01 X5.7853 Y20.1059
G01 X5.8531 Y19.9165
G01 X5.9391 Y19.7346
G01 X6.0425 Y19.5621
G01 X6.1623 Y19.4005
G01 X6.2974 Y19.2514
G01 X6.4465 Y19.1163
G01 X6.6081 Y18.9965
G01 X6.7806 Y18.8931
G01 X6.9625 Y18.8071
G01 X7.1496 Y18.7400
G01 X7.3495 Y18.6900
G01 X7.5461 Y18.6609
G01 X7.7470 Y18.6510
G01 X7.9479 Y18.6609
G01 X8.1445 Y18.6900
G01 X8.3444 Y18.7400
G01 X8.5315 Y18.8071
G01 X8.7134 Y18.8931
G01 X8.8879 Y18.9979
G01 X9.0475 Y19.1163
G01 X9.1966 Y19.2514
G01 X9.3317 Y19.4005
G01 X9.4501 Y19.5601
G01 X9.5560 Y19.7368
G01 X9.6409 Y19.9165
G01 X9.7087 Y20.1059
G01 X9.7576 Y20.3011
G01 X9.7868 Y20.4976
G01 X9.7969 Y20.7035
G01 X9.7871 Y20.9019
G01 X9.7576 Y21.1009
G01 X9.7087 Y21.2961
G01 X9.6418 Y21.4832
G01 X9.5560 Y21.6652
G01 X9.5312 Y21.7070
G01 X15.9759 Y28.1518
G01 X27.6820 Y28.1518
G01 X27.7020 Y28.1187
G01 X27.7633 Y28.0359
G01 X27.8343 Y27.9578
G01 X27.9089 Y27.8903
G01 X27.9896 Y27.8304
G01 X28.0822 Y27.7749
G01 X28.1732 Y27.7319
G01 X28.2679 Y27.6980
G01 X28.3702 Y27.6722
G01 X28.4745 Y27.6569
G01 X28.5750 Y27.6520
G01 X28.6755 Y27.6569
G01 X28.7798 Y27.6722
G01 X28.8798 Y27.6972
G01 X28.9768 Y27.7319
G01 X29.0721 Y27.7772
G01 X29.1604 Y27.8304
G01 X29.2411 Y27.8903
G01 X29.3157 Y27.9578
G01 X29.3867 Y28.0359
G01 X29.4480 Y28.1187
G01 X29.5010 Y28.2070
G01 X29.5451 Y28.3002
G01 X29.5798 Y28.3972
G01 X29.6052 Y28.4996
G01 X29.6201 Y28.6015
G01 X29.6250 Y28.7008
G01 X29.6201 Y28.8025
G01 X29.6048 Y28.9068
G01 X29.5798 Y29.0068
G01 X29.5441 Y29.1061
G01 X29.5010 Y29.1970
G01 X29.4480 Y29.2853
G01 X29.3867 Y29.3681
G01 X29.3192 Y29.4427
G01 X29.2392 Y29.5152
G01 X29.1583 Y29.5750
G01 X29.0700 Y29.6280
G01 X28.9768 Y29.6721
G01 X28.8821 Y29.7060
G01 X28.7774 Y29.7322
G01 X28.6779 Y29.7469
G01 X28.5750 Y29.7520
G01 X28.4721 Y29.7469
G01 X28.3678 Y29.7313
G01 X28.2702 Y29.7068
G01 X28.1755 Y29.6730
G01 X28.0800 Y29.6280
G01 X27.9896 Y29.5736
G01 X27.9089 Y29.5137
G01 X27.8343 Y29.4462
G01 X27.7633 Y29.3681
G01 X27.7020 Y29.2853
G01 X27.6820 Y29.2522
G01 X15.7480 Y29.2522
G01 X15.6916 Y29.2493
G01 X15.6407 Y29.2417
G01 X15.5883 Y29.2286
G01 X15.5374 Y29.2104
G01 X15.4865 Y29.1861
G01 X15.4423 Y29.1595
G01 X15.4009 Y29.1289
G01 X15.3589 Y29.0911
G01 X8.7530 Y22.4852
G00 Z2.0000
G00 X8.7530 Y27.5652
G01 F60.00
G01 Z-0.8000
G01 F500.00
G01 X8.7112 Y27.5900
G01 X8.5315 Y27.6749
G01 X8.3421 Y27.7427
G01 X8.1469 Y27.7916
G01 X7.9479 Y27.8211
G01 X7.7470 Y27.8310
G01 X7.5461 Y27.8211
G01 X7.3471 Y27.7916
G01 X7.1519 Y27.7427
G01 X6.9625 Y27.6749
G01 X6.7806 Y27.5889
G01 X6.6081 Y27.4855
G01 X6.4465 Y27.3657
G01 X6.2974 Y27.2306
G01 X6.1623 Y27.0815
G01 X6.0425 Y26.9199
G01 X5.9391 Y26.7474
G01 X5.8531 Y26.5655
G01 X5.7853 Y26.3761
G01 X5.7364 Y26.1809
G01 X5.7069 Y25.9819
G01 X5.6970 Y25.7810
G01 X5.7069 Y25.5801
G01 X5.7364 Y25.3811
G01 X5.7853 Y25.1859
G01 X5.8531 Y24.9965
G01 X5.9391 Y24.8146
G01 X6.0425 Y24.6421
G01 X6.1623 Y24.4805
G01 X6.2974 Y24.3314
G01 X6.4465 Y24.1963
G01 X6.6081 Y24.0765
G01 X6.7806 Y23.9731
G01 X6.9625 Y23.8871
G01 X7.1496 Y23.8200
G01 X7.3495 Y23.7700
G01 X7.5461 Y23.7409
G01 X7.7470 Y23.7310
G01 X7.9479 Y23.7409
G01 X8.1445 Y23.7700
G01 X8.3444 Y23.8200
G01 X8.5315 Y23.8871
G01 X8.7134 Y23.9731
G01 X8.8879 Y24.0779
G01 X9.0475 Y24.1963
G01 X9.1966 Y24.3314
G01 X9.3317 Y24.4805
G01 X9.4501 Y24.6401
G01 X9.5560 Y24.8168
G01 X9.6409 Y24.9965
G01 X9.7087 Y25.1859
G01 X9.7576 Y25.3811
G01 X9.7868 Y25.5776
G01 X9.7969 Y25.7835
G01 X9.7871 Y25.9819
G01 X9.7576 Y26.1809
G01 X9.7087 Y26.3761
G01 X9.6418 Y26.5632
G01 X9.5560 Y26.7452
G01 X9.5312 Y26.7870
G01 X13.4359 Y30.6918
G01 X27.6820 Y30.6918
G01 X27.7020 Y30.6587
G01 X27.7633 Y30.5759
G01 X27.8343 Y30.4978
G01 X27.9089 Y30.4303
G01 X27.9896 Y30.3704
G01 X28.0800 Y30.3160
G01 X28.1755 Y30.2710
G01 X28.2702 Y30.2372
G01 X28.3678 Y30.2127
G01 X28.4721 Y30.1971
G01 X28.5775 Y30.1921
G01 X28.6779 Y30.1971
G01 X28.7822 Y30.2127
G01 X28.8798 Y30.2372
G01 X28.9745 Y30.2710
G01 X29.0678 Y30.3149
G01 X29.1583 Y30.3690
G01 X29.2411 Y30.4303
G01 X29.3175 Y30.4995
G01 X29.3867 Y30.5759
G01 X29.4480 Y30.6587
G01 X29.5021 Y30.7492
G01 X29.5460 Y30.8425
G01 X29.5798 Y30.9372
G01 X29.6043 Y31.0348
G01 X29.6199 Y31.1391
G01 X29.6250 Y31.2408
G01 X29.6199 Y31.3449
G01 X29.6048 Y31.4468
G01 X29.5798 Y31.5468
G01 X29.5451 Y31.6438
G01 X29.5010 Y31.7370
G01 X29.4494 Y31.8233
G01 X29.3851 Y31.9100
G01 X29.3175 Y31.9845
G01 X29.2411 Y32.0537
G01 X29.1583 Y32.1150
G01 X29.0700 Y32.1680
G01 X28.9768 Y32.2121
G01 X28.8821 Y32.2460
G01 X28.7774 Y32.2722
G01 X28.6779 Y32.2869
G01 X28.5750 Y32.2920
G01 X28.4721 Y32.2869
G01 X28.3678 Y32.2713
G01 X28.2702 Y32.2468
G01 X28.1755 Y32.2130
G01 X28.0800 Y32.1680
G01 X27.9896 Y32.1136
G01 X27.9089 Y32.0537
G01 X27.8343 Y31.9862
G01 X27.7633 Y31.9081
G01 X27.7020 Y31.8253
G01 X27.6820 Y31.7922
G01 X13.2080 Y31.7922
G01 X13.1541 Y31.7896
G01 X13.1007 Y31.7817
G01 X13.0483 Y31.7686
G01 X12.9997 Y31.7512
G01 X12.9486 Y31.7273
G01 X12.9003 Y31.6981
G01 X12.8589 Y31.6673
G01 X12.8198 Y31.6319
G01 X8.7530 Y27.5652
G00 Z2.0000
G00 X8.7530 Y32.6452
G01 F60.00
G01 Z-0.8000
G01 F500.00
G01 X8.7112 Y32.6700
G01 X8.5315 Y32.7549
G01 X8.3421 Y32.8227
G01 X8.1469 Y32.8716
G01 X7.9479 Y32.9011
G01 X7.7470 Y32.9110
G01 X7.5461 Y32.9011
G01 X7.3471 Y32.8716
G01 X7.1519 Y32.8227
G01 X6.9625 Y32.7549
G01 X6.7806 Y32.6689
G01 X6.6081 Y32.5655
G01 X6.4465 Y32.4457
G01 X6.2974 Y32.3106
G01 X6.1623 Y32.1615
G01 X6.0425 Y31.9999
G01 X5.9391 Y31.8274
G01 X5.8531 Y31.6455
G01 X5.7853 Y31.4561
G01 X5.7364 Y31.2609
G01 X5.7069 Y31.0619
G01 X5.6970 Y30.8610
G01 X5.7069 Y30.6601
G01 X5.7364 Y30.4611
G01 X5.7853 Y30.2659
G01 X5.8531 Y30.0765
G01 X5.9391 Y29.8946
G01 X6.0425 Y29.7221
G01 X6.1623 Y29.5605
G01 X6.2974 Y29.4114
G01 X6.4465 Y29.2763
G01 X6.6081 Y29.1565
G01 X6.7806 Y29.0531
G01 X6.9625 Y28.9671
G01 X7.1496 Y28.9000
G01 X7.3495 Y28.8500
G01 X7.5461 Y28.8209
G01 X7.7470 Y28.8110
G01 X7.9479 Y28.8209
G01 X8.1445 Y28.8500
G01 X8.3444 Y28.9000
G01 X8.5315 Y28.9671
G01 X8.7134 Y29.0531
G01 X8.8879 Y29.1579
G01 X9.0475 Y29.2763
G01 X9.1966 Y29.4114
G01 X9.3317 Y29.5605
G01 X9.4501 Y29.7201
G01 X9.5560 Y29.8968
G01 X9.6409 Y30.0765
G01 X9.7087 Y30.2659
G01 X9.7576 Y30.4611
G01 X9.7868 Y30.6576
G01 X9.7969 Y30.8635
G01 X9.7871 Y31.0619
G01 X9.7576 Y31.2609
G01 X9.7087 Y31.4561
G01 X9.6418 Y31.6432
G01 X9.5560 Y31.8252
G01 X9.5312 Y31.8670
G01 X10.8959 Y33.2318
G01 X27.6820 Y33.2318
G01 X27.7020 Y33.1987
G01 X27.7633 Y33.1159
G01 X27.8343 Y33.0378
G01 X27.9089 Y32.9703
G01 X27.9896 Y32.9104
G01 X28.0800 Y32.8560
G01 X28.1755 Y32.8110
G01 X28.2702 Y32.7772
G01 X28.3678 Y32.7527
G01 X28.4721 Y32.7371
G01 X28.5775 Y32.7321
G01 X28.6779 Y32.7371
G01 X28.7798 Y32.7522
G01 X28.8798 Y32.7772
G01 X28.9768 Y32.8119
G01 X29.0700 Y32.8560
G01 X29.1583 Y32.9090
G01 X29.2411 Y32.9703
G01 X29.3192 Y33.0413
G01 X29.3867 Y33.1159
G01 X29.4480 Y33.1987
G01 X29.5010 Y33.2870
G01 X29.5460 Y33.3825
G01 X29.5798 Y33.4772
G01 X29.6043 Y33.5748
G01 X29.6196 Y33.6766
G01 X29.6250 Y33.7808
G01 X29.6201 Y33.8825
G01 X29.6048 Y33.9868
G01 X29.5798 Y34.0868
G01 X29.5451 Y34.1838
G01 X29.5021 Y34.2748
G01 X29.4466 Y34.3674
G01 X29.3867 Y34.4481
G01 X29.3157 Y34.5262
G01 X29.2411 Y34.5937
G01 X29.1583 Y34.6550
G01 X29.0700 Y34.7080
G01 X28.9768 Y34.7521
G01 X28.8798 Y34.7868
G01 X28.7798 Y34.8118
G01 X28.6779 Y34.8269
G01 X28.5750 Y34.8320
G01 X28.4721 Y34.8269
G01 X28.3678 Y34.8113
G01 X28.2702 Y34.7868
G01 X28.1755 Y34.7530
G01 X28.0800 Y34.7080
G01 X27.9896 Y34.6536
G01 X27.9089 Y34.5937
G01 X27.8343 Y34.5262
G01 X27.7633 Y34.4481
G01 X27.7020 Y34.3653
G01 X27.6820 Y34.3322
G01 X10.6680 Y34.3322
G01 X10.6165 Y34.3298
G01 X10.5583 Y34.3211
G01 X10.5083 Y34.3086
G01 X10.4574 Y34.2904
G01 X10.4086 Y34.2673
G01 X10.3644 Y34.2408
G01 X10.3171 Y34.2057
G01 X10.2789 Y34.1711
G01 X8.7530 Y32.6452
G00 Z2.0000
G00 X9.5716 Y36.8722
G01 F60.00
G01 Z-0.8000
G01 F500.00
G01 X9.5537 Y36.9095
G01 X9.4515 Y37.0799
G01 X9.3317 Y37.2415
G01 X9.1966 Y37.3906
G01 X9.0475 Y37.5257
G01 X8.8859 Y37.6455
G01 X8.7134 Y37.7489
G01 X8.5315 Y37.8349
G01 X8.3421 Y37.9027
G01 X8.1469 Y37.9516
G01 X7.9479 Y37.9811
G01 X7.7470 Y37.9910
G01 X7.5461 Y37.9811
G01 X7.3471 Y37.9516
G01 X7.1519 Y37.9027
G01 X6.9625 Y37.8349
G01 X6.7806 Y37.7489
G01 X6.6081 Y37.6455
G01 X6.4465 Y37.5257
G01 X6.2974 Y37.3906
G01 X6.1623 Y37.2415
G01 X6.0425 Y37.0799
G01 X5.9391 Y36.9074
G01 X5.8531 Y36.7255
G01 X5.7853 Y36.5361
G01 X5.7364 Y36.3409
G01 X5.7069 Y36.1419
G01 X5.6970 Y35.9410
G01 X5.7069 Y35.7401
G01 X5.7364 Y35.5411
G01 X5.7853 Y35.3459
G01 X5.8531 Y35.1565
G01 X5.9391 Y34.9746
G01 X6.0439 Y34.8001
G01 X6.1623 Y34.6405
G01 X6.2974 Y34.4914
G01 X6.4484 Y34.3548
G01 X6.6081 Y34.2365
G01 X6.7806 Y34.1331
G01 X6.9625 Y34.0471
G01 X7.1496 Y33.9800
G01 X7.3471 Y33.9304
G01 X7.5485 Y33.9007
G01 X7.7470 Y33.8910
G01 X7.9455 Y33.9007
G01 X8.1469 Y33.9304
G01 X8.3397 Y33.9786
G01 X8.5337 Y34.0480
G01 X8.7134 Y34.1331
G01 X8.8859 Y34.2365
G01 X9.0475 Y34.3563
G01 X9.1966 Y34.4914
G01 X9.3317 Y34.6405
G01 X9.4515 Y34.8021
G01 X9.5549 Y34.9746
G01 X9.6400 Y35.1543
G01 X9.7087 Y35.3459
G01 X9.7571 Y35.5387
G01 X9.7868 Y35.7376
G01 X9.7887 Y35.7718
G01 X27.6820 Y35.7718
G01 X27.7020 Y35.7387
G01 X27.7633 Y35.6559
G01 X27.8343 Y35.5778
G01 X27.9089 Y35.5103
G01 X27.9896 Y35.4504
G01 X28.0800 Y35.3960
G01 X28.1755 Y35.3510
G01 X28.2702 Y35.3172
G01 X28.3678 Y35.2927
G01 X28.4721 Y35.2771
G01 X28.5775 Y35.2721
G01 X28.6779 Y35.2771
G01 X28.7798 Y35.2922
G01 X28.8798 Y35.3172
G01 X28.9768 Y35.3519
G01 X29.0700 Y35.3960
G01 X29.1583 Y35.4490
G01 X29.2411 Y35.5103
G01 X29.3175 Y35.5795
G01 X29.3867 Y35.6559
G01 X29.4480 Y35.7387
G01 X29.5010 Y35.8270
G01 X29.5451 Y35.9202
G01 X29.5798 Y36.0172
G01 X29.6048 Y36.1172
G01 X29.6199 Y36.2191
G01 X29.6250 Y36.3208
G01 X29.6199 Y36.4249
G01 X29.6048 Y36.5268
G01 X29.5798 Y36.6268
G01 X29.5451 Y36.7238
G01 X29.5010 Y36.8170
G01 X29.4480 Y36.9053
G01 X29.3867 Y36.9881
G01 X29.3175 Y37.0645
G01 X29.2411 Y37.1337
G01 X29.1583 Y37.1950
G01 X29.0700 Y37.2480
G01 X28.9768 Y37.2921
G01 X28.8798 Y37.3268
G01 X28.7798 Y37.3518
G01 X28.6779 Y37.3669
G01 X28.5775 Y37.3719
G01 X28.4721 Y37.3669
G01 X28.3678 Y37.3513
G01 X28.2702 Y37.3268
G01 X28.1755 Y37.2930
G01 X28.0800 Y37.2480
G01 X27.9896 Y37.1936
G01 X27.9089 Y37.1337
G01 X27.8343 Y37.0662
G01 X27.7633 Y36.9881
G01 X27.7020 Y36.9053
G01 X27.6820 Y36.8722
G01 X9.5716 Y36.8722
G00 Z2.0000
G00 X8.7530 Y39.2368
G01 F60.00
G01 Z-0.8000
G01 F500.00
G01 X9.5169 Y38.4729
G01 X9.5569 Y38.4367
G01 X9.6003 Y38.4045
G01 X9.6445 Y38.3779
G01 X9.6954 Y38.3536
G01 X9.7463 Y38.3354
G01 X9.7963 Y38.3229
G01 X9.8545 Y38.3142
G01 X9.9060 Y38.3118
G01 X27.6820 Y38.3118
G01 X27.7020 Y38.2787
G01 X27.7633 Y38.1959
G01 X27.8343 Y38.1178
G01 X27.9089 Y38.0503
G01 X27.9896 Y37.9904
G01 X28.0800 Y37.9360
G01 X28.1755 Y37.8910
G01 X28.2702 Y37.8572
G01 X28.3678 Y37.8327
G01 X28.4721 Y37.8171
G01 X28.5750 Y37.8120
G01 X28.6779 Y37.8171
G01 X28.7798 Y37.8322
G01 X28.8798 Y37.8572
G01 X28.9768 Y37.8919
G01 X29.0700 Y37.9360
G01 X29.1583 Y37.9890
G01 X29.2411 Y38.0503
G01 X29.3175 Y38.1195
G01 X29.3867 Y38.1959
G01 X29.4480 Y38.2787
G01 X29.5010 Y38.3670
G01 X29.5451 Y38.4602
G01 X29.5798 Y38.5572
G01 X29.6048 Y38.6572
G01 X29.6199 Y38.7591
G01 X29.6250 Y38.8608
G01 X29.6199 Y38.9649
G01 X29.6048 Y39.0668
G01 X29.5798 Y39.1668
G01 X29.5451 Y39.2638
G01 X29.5010 Y39.3570
G01 X29.4480 Y39.4453
G01 X29.3867 Y39.5281
G01 X29.3175 Y39.6045
G01 X29.2411 Y39.6737
G01 X29.1583 Y39.7350
G01 X29.0700 Y39.7880
G01 X28.9768 Y39.8321
G01 X28.8798 Y39.8668
G01 X28.7798 Y39.8918
G01 X28.6779 Y39.9069
G01 X28.5775 Y39.9119
G01 X28.4721 Y39.9069
G01 X28.3678 Y39.8913
G01 X28.2702 Y39.8668
G01 X28.1755 Y39.8330
G01 X28.0800 Y39.7880
G01 X27.9896 Y39.7336
G01 X27.9089 Y39.6737
G01 X27.8343 Y39.6062
G01 X27.7633 Y39.5281
G01 X27.7020 Y39.4453
G01 X27.6820 Y39.4122
G01 X10.1339 Y39.4122
G01 X9.5312 Y40.0150
G01 X9.5560 Y40.0568
G01 X9.6418 Y40.2388
G01 X9.7087 Y40.4259
G01 X9.7576 Y40.6211
G01 X9.7871 Y40.8201
G01 X9.7969 Y41.0185
G01 X9.7868 Y41.2244
G01 X9.7576 Y41.4209
G01 X9.7087 Y41.6161
G01 X9.6409 Y41.8055
G01 X9.5560 Y41.9852
G01 X9.4501 Y42.1619
G01 X9.3317 Y42.3215
G01 X9.1966 Y42.4706
G01 X9.0456 Y42.6072
G01 X8.8859 Y42.7255
G01 X8.7134 Y42.8289
G01 X8.5315 Y42.9149
G01 X8.3444 Y42.9820
G01 X8.1445 Y43.0320
G01 X7.9479 Y43.0611
G01 X7.7470 Y43.0710
G01 X7.5461 Y43.0611
G01 X7.3495 Y43.0320
G01 X7.1496 Y42.9820
G01 X6.9625 Y42.9149
G01 X6.7806 Y42.8289
G01 X6.6081 Y42.7255
G01 X6.4465 Y42.6057
G01 X6.2974 Y42.4706
G01 X6.1623 Y42.3215
G01 X6.0425 Y42.1599
G01 X5.9391 Y41.9874
G01 X5.8531 Y41.8055
G01 X5.7853 Y41.6161
G01 X5.7364 Y41.4209
G01 X5.7069 Y41.2219
G01 X5.6970 Y41.0210
G01 X5.7069 Y40.8201
G01 X5.7364 Y40.6211
G01 X5.7853 Y40.4259
G01 X5.8531 Y40.2365
G01 X5.9391 Y40.0546
G01 X6.0425 Y39.8821
G01 X6.1623 Y39.7205
G01 X6.2974 Y39.5714
G01 X6.4465 Y39.4363
G01 X6.6081 Y39.3165
G01 X6.7806 Y39.2131
G01 X6.9625 Y39.1271
G01 X7.1519 Y39.0593
G01 X7.3471 Y39.0104
G01 X7.5461 Y38.9809
G01 X7.7470 Y38.9710
G01 X7.9479 Y38.9809
G01 X8.1469 Y39.0104
G01 X8.3421 Y39.0593
G01 X8.5315 Y39.1271
G01 X8.7112 Y39.2120
G01 X8.7530 Y39.2368
G00 Z2.0000
G00 X8.7530 Y44.3168
G01 F60.00
G01 Z-0.8000
G01 F500.00
G01 X12.0578 Y41.0121
G01 X12.0969 Y40.9767
G01 X12.1383 Y40.9459
G01 X12.1888 Y40.9156
G01 X12.2354 Y40.8936
G01 X12.2863 Y40.8754
G01 X12.3387 Y40.8623
G01 X12.3896 Y40.8547
G01 X12.4460 Y40.8518
G01 X27.6820 Y40.8518
G01 X27.7020 Y40.8187
G01 X27.7633 Y40.7359
G01 X27.8343 Y40.6578
G01 X27.9089 Y40.5903
G01 X27.9896 Y40.5304
G01 X28.0800 Y40.4760
G01 X28.1755 Y40.4310
G01 X28.2702 Y40.3972
G01 X28.3678 Y40.3727
G01 X28.4721 Y40.3571
G01 X28.5775 Y40.3521
G01 X28.6779 Y40.3571
G01 X28.7798 Y40.3722
G01 X28.8798 Y40.3972
G01 X28.9745 Y40.4310
G01 X29.0700 Y40.4760
G01 X29.1563 Y40.5276
G01 X29.2430 Y40.5919
G01 X29.3175 Y40.6595
G01 X29.3867 Y40.7359
G01 X29.4480 Y40.8187
G01 X29.5010 Y40.9070
G01 X29.5451 Y41.0002
G01 X29.5798 Y41.0972
G01 X29.6048 Y41.1972
G01 X29.6196 Y41.2966
G01 X29.6250 Y41.4008
G01 X29.6199 Y41.5049
G01 X29.6048 Y41.6068
G01 X29.5798 Y41.7068
G01 X29.5451 Y41.8038
G01 X29.5010 Y41.8970
G01 X29.4480 Y41.9853
G01 X29.3851 Y42.0700
G01 X29.3175 Y42.1445
G01 X29.2411 Y42.2137
G01 X29.1583 Y42.2750
G01 X29.0678 Y42.3291
G01 X28.9768 Y42.3721
G01 X28.8821 Y42.4060
G01 X28.7822 Y42.4313
G01 X28.6779 Y42.4469
G01 X28.5775 Y42.4519
G01 X28.4721 Y42.4469
G01 X28.3678 Y42.4313
G01 X28.2702 Y42.4068
G01 X28.1755 Y42.3730
G01 X28.0800 Y42.3280
G01 X27.9896 Y42.2736
G01 X27.9089 Y42.2137
G01 X27.8343 Y42.1462
G01 X27.7633 Y42.0681
G01 X27.7020 Y41.9853
G01 X27.6820 Y41.9522
G01 X12.6739 Y41.9522
G01 X9.5312 Y45.0950
G01 X9.5560 Y45.1368
G01 X9.6418 Y45.3188
G01 X9.7087 Y45.5059
G01 X9.7576 Y45.7011
G01 X9.7871 Y45.9001
G01 X9.7969 Y46.0985
G01 X9.7868 Y46.3044
G01 X9.7576 Y46.5009
G01 X9.7087 Y46.6961
G01 X9.6409 Y46.8855
G01 X9.5560 Y47.0652
G01 X9.4501 Y47.2419
G01 X9.3317 Y47.4015
G01 X9.1966 Y47.5506
G01 X9.0456 Y47.6872
G01 X8.8859 Y47.8055
G01 X8.7134 Y47.9089
G01 X8.5315 Y47.9949
G01 X8.3444 Y48.0620
G01 X8.1445 Y48.1120
G01 X7.9479 Y48.1411
G01 X7.7470 Y48.1510
G01 X7.5461 Y48.1411
G01 X7.3495 Y48.1120
G01 X7.1496 Y48.0620
G01 X6.9625 Y47.9949
G01 X6.7806 Y47.9089
G01 X6.6081 Y47.8055
G01 X6.4465 Y47.6857
G01 X6.2974 Y47.5506
G01 X6.1623 Y47.4015
G01 X6.0425 Y47.2399
G01 X5.9391 Y47.0674
G01 X5.8531 Y46.8855
G01 X5.7853 Y46.6961
G01 X5.7364 Y46.5009
G01 X5.7069 Y46.3019
G01 X5.6970 Y46.1010
G01 X5.7069 Y45.9001
G01 X5.7364 Y45.7011
G01 X5.7853 Y45.5059
G01 X5.8531 Y45.3165
G01 X5.9391 Y45.1346
G01 X6.0425 Y44.9621
G01 X6.1623 Y44.8005
G01 X6.2974 Y44.6514
G01 X6.4465 Y44.5163
G01 X6.6081 Y44.3965
G01 X6.7806 Y44.2931
G01 X6.9625 Y44.2071
G01 X7.1519 Y44.1393
G01 X7.3471 Y44.0904
G01 X7.5461 Y44.0609
G01 X7.7470 Y44.0510
G01 X7.9479 Y44.0609
G01 X8.1469 Y44.0904
G01 X8.3421 Y44.1393
G01 X8.5315 Y44.2071
G01 X8.7112 Y44.2920
G01 X8.7530 Y44.3168
G00 Z2.0000
G00 X8.7530 Y49.3968
G01 F60.00
G01 Z-0.8000
G01 F500.00
G01 X14.5969 Y43.5529
G01 X14.6389 Y43.5151
G01 X14.6803 Y43.4845
G01 X14.7245 Y43.4579
G01 X14.7754 Y43.4336
G01 X14.8286 Y43.4148
G01 X14.8787 Y43.4023
G01 X14.9296 Y43.3947
G01 X14.9860 Y43.3918
G01 X27.6820 Y43.3918
G01 X27.7020 Y43.3587
G01 X27.7633 Y43.2759
G01 X27.8343 Y43.1978
G01 X27.9089 Y43.1303
G01 X27.9896 Y43.0704
G01 X28.0800 Y43.0160
G01 X28.1755 Y42.9710
G01 X28.2702 Y42.9372
G01 X28.3678 Y42.9127
G01 X28.4721 Y42.8971
G01 X28.5750 Y42.8920
G01 X28.6779 Y42.8971
G01 X28.7774 Y42.9118
G01 X28.8821 Y42.9380
G01 X28.9768 Y42.9719
G01 X29.0700 Y43.0160
G01 X29.1583 Y43.0690
G01 X29.2392 Y43.1288
G01 X29.3192 Y43.2013
G01 X29.3867 Y43.2759
G01 X29.4480 Y43.3587
G01 X29.5010 Y43.4470
G01 X29.5441 Y43.5379
G01 X29.5804 Y43.6396
G01 X29.6048 Y43.7372
G01 X29.6201 Y43.8415
G01 X29.6249 Y43.9445
G01 X29.6199 Y44.0449
G01 X29.6052 Y44.1444
G01 X29.5798 Y44.2468
G01 X29.5451 Y44.3438
G01 X29.5010 Y44.4370
G01 X29.4480 Y44.5253
G01 X29.3867 Y44.6081
G01 X29.3157 Y44.6862
G01 X29.2392 Y44.7552
G01 X29.1583 Y44.8150
G01 X29.0721 Y44.8668
G01 X28.9768 Y44.9121
G01 X28.8798 Y44.9468
G01 X28.7798 Y44.9718
G01 X28.6755 Y44.9871
G01 X28.5750 Y44.9920
G01 X28.4745 Y44.9871
G01 X28.3702 Y44.9718
G01 X28.2679 Y44.9460
G01 X28.1732 Y44.9121
G01 X28.0822 Y44.8691
G01 X27.9896 Y44.8136
G01 X27.9089 Y44.7537
G01 X27.8343 Y44.6862
G01 X27.7633 Y44.6081
G01 X27.7020 Y44.5253
G01 X27.6820 Y44.4922
G01 X15.2139 Y44.4922
G01 X9.5312 Y50.1750
G01 X9.5560 Y50.2168
G01 X9.6418 Y50.3988
G01 X9.7087 Y50.5859
G01 X9.7576 Y50.7811
G01 X9.7871 Y50.9801
G01 X9.7969 Y51.1785
G01 X9.7868 Y51.3844
G01 X9.7576 Y51.5809
G01 X9.7087 Y51.7761
G01 X9.6409 Y51.9655
G01 X9.5560 Y52.1452
G01 X9.4501 Y52.3219
G01 X9.3317 Y52.4815
G01 X9.1966 Y52.6306
G01 X9.0456 Y52.7672
G01 X8.8859 Y52.8855
G01 X8.7134 Y52.9889
G01 X8.5315 Y53.0749
G01 X8.3444 Y53.1420
G01 X8.1445 Y53.1920
G01 X7.9479 Y53.2211
G01 X7.7470 Y53.2310
G01 X7.5461 Y53.2211
G01 X7.3495 Y53.1920
G01 X7.1496 Y53.1420
G01 X6.9625 Y53.0749
G01 X6.7806 Y52.9889
G01 X6.6081 Y52.8855
G01 X6.4465 Y52.7657
G01 X6.2974 Y52.6306
G01 X6.1623 Y52.4815
G01 X6.0425 Y52.3199
G01 X5.9391 Y52.1474
G01 X5.8531 Y51.9655
G01 X5.7853 Y51.7761
G01 X5.7364 Y51.5809
G01 X5.7069 Y51.3819
G01 X5.6970 Y51.1810
G01 X5.7069 Y50.9801
G01 X5.7364 Y50.7811
G01 X5.7853 Y50.5859
G01 X5.8531 Y50.3965
G01 X5.9391 Y50.2146
G01 X6.0425 Y50.0421
G01 X6.1623 Y49.8805
G01 X6.2974 Y49.7314
G01 X6.4465 Y49.5963
G01 X6.6081 Y49.4765
G01 X6.7806 Y49.3731
G01 X6.9625 Y49.2871
G01 X7.1519 Y49.2193
G01 X7.3471 Y49.1704
G01 X7.5461 Y49.1409
G01 X7.7470 Y49.1310
G01 X7.9479 Y49.1409
G01 X8.1469 Y49.1704
G01 X8.3421 Y49.2193
G01 X8.5315 Y49.2871
G01 X8.7112 Y49.3720
G01 X8.7530 Y49.3968
G00 Z2.0000
G00 X8.7530 Y54.4768
G01 F60.00
G01 Z-0.8000
G01 F500.00
G01 X17.1369 Y46.0929
G01 X17.1769 Y46.0567
G01 X17.2203 Y46.0245
G01 X17.2666 Y45.9967
G01 X17.3154 Y45.9736
G01 X17.3663 Y45.9554
G01 X17.4187 Y45.9423
G01 X17.4721 Y45.9344
G01 X17.5260 Y45.9318
G01 X27.6820 Y45.9318
G01 X27.7020 Y45.8987
G01 X27.7633 Y45.8159
G01 X27.8343 Y45.7378
G01 X27.9089 Y45.6703
G01 X27.9896 Y45.6104
G01 X28.0800 Y45.5560
G01 X28.1755 Y45.5110
G01 X28.2702 Y45.4772
G01 X28.3678 Y45.4527
G01 X28.4721 Y45.4371
G01 X28.5750 Y45.4320
G01 X28.6804 Y45.4374
G01 X28.7798 Y45.4522
G01 X28.8798 Y45.4772
G01 X28.9768 Y45.5119
G01 X29.0678 Y45.5549
G01 X29.1583 Y45.6090
G01 X29.2411 Y45.6703
G01 X29.3157 Y45.7378
G01 X29.3867 Y45.8159
G01 X29.4494 Y45.9007
G01 X29.5010 Y45.9870
G01 X29.5451 Y46.0802
G01 X29.5798 Y46.1772
G01 X29.6052 Y46.2796
G01 X29.6201 Y46.3815
G01 X29.6250 Y46.4832
G01 X29.6201 Y46.5825
G01 X29.6048 Y46.6868
G01 X29.5798 Y46.7868
G01 X29.5451 Y46.8838
G01 X29.4998 Y46.9791
G01 X29.4480 Y47.0653
G01 X29.3882 Y47.1462
G01 X29.3192 Y47.2227
G01 X29.2411 Y47.2937
G01 X29.1583 Y47.3550
G01 X29.0700 Y47.4080
G01 X28.9745 Y47.4530
G01 X28.8798 Y47.4868
G01 X28.7822 Y47.5113
G01 X28.6779 Y47.5269
G01 X28.5725 Y47.5319
G01 X28.4721 Y47.5269
G01 X28.3702 Y47.5118
G01 X28.2679 Y47.4860
G01 X28.1732 Y47.4521
G01 X28.0822 Y47.4091
G01 X27.9896 Y47.3536
G01 X27.9089 Y47.2937
G01 X27.8343 Y47.2262
G01 X27.7633 Y47.1481
G01 X27.7020 Y47.0653
G01 X27.6820 Y47.0322
G01 X17.7539 Y47.0322
G01 X9.5312 Y55.2550
G01 X9.5560 Y55.2968
G01 X9.6418 Y55.4788
G01 X9.7087 Y55.6659
G01 X9.7576 Y55.8611
G01 X9.7871 Y56.0601
G01 X9.7969 Y56.2585
G01 X9.7868 Y56.4644
G01 X9.7576 Y56.6609
G01 X9.7087 Y56.8561
G01 X9.6409 Y57.0455
G01 X9.5560 Y57.2252
G01 X9.4501 Y57.4019
G01 X9.3317 Y57.5615
G01 X9.1966 Y57.7106
G01 X9.0456 Y57.8472
G01 X8.8859 Y57.9655
G01 X8.7134 Y58.0689
G01 X8.5315 Y58.1549
G01 X8.3444 Y58.2220
G01 X8.1445 Y58.2720
G01 X7.9479 Y58.3011
G01 X7.7470 Y58.3110
G01 X7.5461 Y58.3011
G01 X7.3495 Y58.2720
G01 X7.1496 Y58.2220
G01 X6.9625 Y58.1549
G01 X6.7806 Y58.0689
G01 X6.6081 Y57.9655
G01 X6.4465 Y57.8457
G01 X6.2974 Y57.7106
G01 X6.1623 Y57.5615
G01 X6.0425 Y57.3999
G01 X5.9391 Y57.2274
G01 X5.8531 Y57.0455
G01 X5.7853 Y56.8561
G01 X5.7364 Y56.6609
G01 X5.7069 Y56.4619
G01 X5.6970 Y56.2610
G01 X5.7069 Y56.0601
G01 X5.7364 Y55.8611
G01 X5.7853 Y55.6659
G01 X5.8531 Y55.4765
G01 X5.9391 Y55.2946
G01 X6.0425 Y55.1221
G01 X6.1623 Y54.9605
G01 X6.2974 Y54.8114
G01 X6.4465 Y54.6763
G01 X6.6081 Y54.5565
G01 X6.7806 Y54.4531
G01 X6.9625 Y54.3671
G01 X7.1519 Y54.2993
G01 X7.3471 Y54.2504
G01 X7.5461 Y54.2209
G01 X7.7470 Y54.2110
G01 X7.9479 Y54.2209
G01 X8.1469 Y54.2504
G01 X8.3421 Y54.2993
G01 X8.5315 Y54.3671
G01 X8.7112 Y54.4520
G01 X8.7530 Y54.4768
G00 Z2.0000
G00 X8.7530 Y59.5568
G01 F60.00
G01 Z-0.8000
G01 F500.00
G01 X19.6769 Y48.6329
G01 X19.7169 Y48.5967
G01 X19.7583 Y48.5659
G01 X19.8066 Y48.5367
G01 X19.8577 Y48.5128
G01 X19.9063 Y48.4954
G01 X19.9563 Y48.4829
G01 X20.0121 Y48.4744
G01 X20.0660 Y48.4718
G01 X27.6820 Y48.4718
G01 X27.7020 Y48.4387
G01 X27.7633 Y48.3559
G01 X27.8343 Y48.2778
G01 X27.9089 Y48.2103
G01 X27.9896 Y48.1504
G01 X28.0800 Y48.0960
G01 X28.1755 Y48.0510
G01 X28.2702 Y48.0172
G01 X28.3678 Y47.9927
G01 X28.4721 Y47.9771
G01 X28.5750 Y47.9720
G01 X28.6804 Y47.9774
G01 X28.7798 Y47.9922
G01 X28.8798 Y48.0172
G01 X28.9791 Y48.0529
G01 X29.0700 Y48.0960
G01 X29.1563 Y48.1476
G01 X29.2411 Y48.2103
G01 X29.3192 Y48.2813
G01 X29.3867 Y48.3559
G01 X29.4466 Y48.4366
G01 X29.5010 Y48.5270
G01 X29.5460 Y48.6225
G01 X29.5798 Y48.7172
G01 X29.6043 Y48.8148
G01 X29.6199 Y48.9191
G01 X29.6250 Y49.0232
G01 X29.6196 Y49.1274
G01 X29.6048 Y49.2268
G01 X29.5804 Y49.3244
G01 X29.5451 Y49.4238
G01 X29.5010 Y49.5170
G01 X29.4480 Y49.6053
G01 X29.3851 Y49.6900
G01 X29.3175 Y49.7645
G01 X29.2430 Y49.8321
G01 X29.1583 Y49.8950
G01 X29.0700 Y49.9480
G01 X28.9745 Y49.9930
G01 X28.8798 Y50.0268
G01 X28.7822 Y50.0513
G01 X28.6779 Y50.0669
G01 X28.5725 Y50.0719
G01 X28.4721 Y50.0669
G01 X28.3702 Y50.0518
G01 X28.2679 Y50.0260
G01 X28.1732 Y49.9921
G01 X28.0822 Y49.9491
G01 X27.9896 Y49.8936
G01 X27.9089 Y49.8337
G01 X27.8343 Y49.7662
G01 X27.7633 Y49.6881
G01 X27.7020 Y49.6053
G01 X27.6820 Y49.5722
G01 X20.2939 Y49.5722
G01 X9.5312 Y60.3350
G01 X9.5560 Y60.3768
G01 X9.6418 Y60.5588
G01 X9.7087 Y60.7459
G01 X9.7576 Y60.9411
G01 X9.7871 Y61.1401
G01 X9.7969 Y61.3385
G01 X9.7868 Y61.5444
G01 X9.7576 Y61.7409
G01 X9.7087 Y61.9361
G01 X9.6409 Y62.1255
G01 X9.5560 Y62.3052
G01 X9.4501 Y62.4819
G01 X9.3317 Y62.6415
G01 X9.1966 Y62.7906
G01 X9.0456 Y62.9272
G01 X8.8859 Y63.0455
G01 X8.7134 Y63.1489
G01 X8.5315 Y63.2349
G01 X8.3444 Y63.3020
G01 X8.1445 Y63.3520
G01 X7.9479 Y63.3811
G01 X7.7470 Y63.3910
G01 X7.5461 Y63.3811
G01 X7.3495 Y63.3520
G01 X7.1496 Y63.3020
G01 X6.9625 Y63.2349
G01 X6.7806 Y63.1489
G01 X6.6081 Y63.0455
G01 X6.4465 Y62.9257
G01 X6.2974 Y62.7906
G01 X6.1623 Y62.6415
G01 X6.0425 Y62.4799
G01 X5.9391 Y62.3074
G01 X5.8531 Y62.1255
G01 X5.7853 Y61.9361
G01 X5.7364 Y61.7409
G01 X5.7069 Y61.5419
G01 X5.6970 Y61.3410
G01 X5.7069 Y61.1401
G01 X5.7364 Y60.9411
G01 X5.7853 Y60.7459
G01 X5.8531 Y60.5565
G01 X5.9391 Y60.3746
G01 X6.0425 Y60.2021
G01 X6.1623 Y60.0405
G01 X6.2974 Y59.8914
G01 X6.4465 Y59.7563
G01 X6.6081 Y59.6365
G01 X6.7806 Y59.5331
G01 X6.9625 Y59.4471
G01 X7.1519 Y59.3793
G01 X7.3471 Y59.3304
G01 X7.5461 Y59.3009
G01 X7.7470 Y59.2910
G01 X7.9479 Y59.3009
G01 X8.1469 Y59.3304
G01 X8.3421 Y59.3793
G01 X8.5315 Y59.4471
G01 X8.7112 Y59.5320
G01 X8.7530 Y59.5568
G00 Z2.0000
G00 X8.7530 Y64.6368
G01 F60.00
G01 Z-0.8000
G01 F500.00
G01 X22.2169 Y51.1729
G01 X22.2569 Y51.1367
G01 X22.3003 Y51.1045
G01 X22.3488 Y51.0756
G01 X22.3954 Y51.0536
G01 X22.4463 Y51.0354
G01 X22.5011 Y51.0219
G01 X22.5521 Y51.0144
G01 X22.6048 Y51.0118
G01 X27.6820 Y51.0118
G01 X27.7020 Y50.9787
G01 X27.7633 Y50.8959
G01 X27.8343 Y50.8178
G01 X27.9089 Y50.7503
G01 X27.9896 Y50.6904
G01 X28.0800 Y50.6360
G01 X28.1755 Y50.5910
G01 X28.2702 Y50.5572
G01 X28.3678 Y50.5327
G01 X28.4721 Y50.5171
G01 X28.5750 Y50.5120
G01 X28.6779 Y50.5171
G01 X28.7822 Y50.5327
G01 X28.8798 Y50.5572
G01 X28.9745 Y50.5910
G01 X29.0700 Y50.6360
G01 X29.1583 Y50.6890
G01 X29.2430 Y50.7519
G01 X29.3175 Y50.8195
G01 X29.3851 Y50.8940
G01 X29.4480 Y50.9787
G01 X29.5010 Y51.0670
G01 X29.5460 Y51.1625
G01 X29.5798 Y51.2572
G01 X29.6043 Y51.3548
G01 X29.6199 Y51.4591
G01 X29.6249 Y51.5645
G01 X29.6199 Y51.6649
G01 X29.6052 Y51.7644
G01 X29.5798 Y51.8668
G01 X29.5451 Y51.9638
G01 X29.4998 Y52.0591
G01 X29.4480 Y52.1453
G01 X29.3882 Y52.2262
G01 X29.3175 Y52.3045
G01 X29.2411 Y52.3737
G01 X29.1563 Y52.4364
G01 X29.0700 Y52.4880
G01 X28.9791 Y52.5311
G01 X28.8798 Y52.5668
G01 X28.7774 Y52.5922
G01 X28.6779 Y52.6069
G01 X28.5775 Y52.6119
G01 X28.4721 Y52.6069
G01 X28.3702 Y52.5918
G01 X28.2726 Y52.5674
G01 X28.1732 Y52.5321
G01 X28.0779 Y52.4868
G01 X27.9917 Y52.4350
G01 X27.9089 Y52.3737
G01 X27.8325 Y52.3045
G01 X27.7649 Y52.2300
G01 X27.7020 Y52.1453
G01 X27.6820 Y52.1122
G01 X22.8339 Y52.1122
G01 X9.5312 Y65.4150
G01 X9.5560 Y65.4568
G01 X9.6418 Y65.6388
G01 X9.7087 Y65.8259
G01 X9.7576 Y66.0211
G01 X9.7871 Y66.2201
G01 X9.7969 Y66.4185
G01 X9.7868 Y66.6244
G01 X9.7576 Y66.8209
G01 X9.7087 Y67.0161
G01 X9.6409 Y67.2055
G01 X9.5560 Y67.3852
G01 X9.4501 Y67.5619
G01 X9.3317 Y67.7215
G01 X9.1966 Y67.8706
G01 X9.0475 Y68.0057
G01 X8.8879 Y68.1241
G01 X8.7112 Y68.2300
G01 X8.5315 Y68.3149
G01 X8.3421 Y68.3827
G01 X8.1469 Y68.4316
G01 X7.9504 Y68.4608
G01 X7.7445 Y68.4709
G01 X7.5461 Y68.4611
G01 X7.3471 Y68.4316
G01 X7.1519 Y68.3827
G01 X6.9648 Y68.3158
G01 X6.7806 Y68.2289
G01 X6.6081 Y68.1255
G01 X6.4465 Y68.0057
G01 X6.2974 Y67.8706
G01 X6.1623 Y67.7215
G01 X6.0425 Y67.5599
G01 X5.9391 Y67.3874
G01 X5.8531 Y67.2055
G01 X5.7853 Y67.0161
G01 X5.7364 Y66.8209
G01 X5.7069 Y66.6219
G01 X5.6970 Y66.4210
G01 X5.7069 Y66.2201
G01 X5.7364 Y66.0211
G01 X5.7853 Y65.8259
G01 X5.8531 Y65.6365
G01 X5.9391 Y65.4546
G01 X6.0425 Y65.2821
G01 X6.1623 Y65.1205
G01 X6.2974 Y64.9714
G01 X6.4465 Y64.8363
G01 X6.6081 Y64.7165
G01 X6.7806 Y64.6131
G01 X6.9625 Y64.5271
G01 X7.1519 Y64.4593
G01 X7.3471 Y64.4104
G01 X7.5461 Y64.3809
G01 X7.7470 Y64.3710
G01 X7.9479 Y64.3809
G01 X8.1469 Y64.4104
G01 X8.3421 Y64.4593
G01 X8.5315 Y64.5271
G01 X8.7112 Y64.6120
G01 X8.7530 Y64.6368
G00 Z2.0000
G00 X7.8135 Y68.6260
G01 F60.00
G01 Z-0.8000
G01 F500.00
G01 X7.7470 Y68.6270
G01 X7.6795 Y68.6260
G01 X7.6129 Y68.6231
G01 X7.5464 Y68.6182
G01 X7.4812 Y68.6114
G01 X7.4147 Y68.6016
G01 X7.3488 Y68.5908
G01 X7.2832 Y68.5781
G01 X7.2180 Y68.5635
G01 X7.1536 Y68.5459
G01 X7.0897 Y68.5272
G01 X7.0265 Y68.5068
G01 X6.9640 Y68.4834
G01 X6.9021 Y68.4588
G01 X6.8404 Y68.4324
G01 X6.7801 Y68.4041
G01 X6.7212 Y68.3737
G01 X6.6625 Y68.3424
G01 X6.6049 Y68.3083
G01 X6.5480 Y68.2729
G01 X6.4933 Y68.2368
G01 X6.4387 Y68.1977
G01 X6.3859 Y68.1577
G01 X6.3339 Y68.1155
G01 X6.2833 Y68.0727
G01 X6.2344 Y68.0267
G01 X6.1864 Y67.9806
G01 X6.1403 Y67.9326
G01 X6.0943 Y67.8837
G01 X6.0515 Y67.8331
G01 X6.0093 Y67.7811
G01 X5.9693 Y67.7283
G01 X5.9302 Y67.6737
G01 X5.8941 Y67.6190
G01 X5.8587 Y67.5621
G01 X5.8246 Y67.5045
G01 X5.7933 Y67.4458
G01 X5.7629 Y67.3869
G01 X5.7346 Y67.3266
G01 X5.7082 Y67.2649
G01 X5.6836 Y67.2030
G01 X5.6602 Y67.1405
G01 X5.6398 Y67.0773
G01 X5.6211 Y67.0134
G01 X5.6035 Y66.9490
G01 X5.5889 Y66.8838
G01 X5.5762 Y66.8182
G01 X5.5654 Y66.7523
G01 X5.5556 Y66.6858
G01 X5.5488 Y66.6206
G01 X5.5439 Y66.5541
G01 X5.5410 Y66.4875
G01 X5.5400 Y66.4210
G01 X5.5410 Y66.3535
G01 X5.5439 Y66.2869
G01 X5.5488 Y66.2204
G01 X5.5556 Y66.1552
G01 X5.5654 Y66.0887
G01 X5.5762 Y66.0228
G01 X5.5889 Y65.9572
G01 X5.6035 Y65.8920
G01 X5.6211 Y65.8276
G01 X5.6398 Y65.7637
G01 X5.6602 Y65.7005
G01 X5.6836 Y65.6380
G01 X5.7082 Y65.5761
G01 X5.7346 Y65.5144
G01 X5.7629 Y65.4541
G01 X5.7933 Y65.3952
G01 X5.8246 Y65.3365
G01 X5.8587 Y65.2789
G01 X5.8941 Y65.2220
G01 X5.9302 Y65.1673
G01 X5.9693 Y65.1127
G01 X6.0093 Y65.0599
G01 X6.0515 Y65.0079
G01 X6.0943 Y64.9573
G01 X6.1403 Y64.9084
G01 X6.1864 Y64.8604
G01 X6.2344 Y64.8143
G01 X6.2833 Y64.7683
G01 X6.3339 Y64.7255
G01 X6.3859 Y64.6833
G01 X6.4387 Y64.6433
G01 X6.4933 Y64.6042
G01 X6.5480 Y64.5681
G01 X6.6049 Y64.5327
G01 X6.6625 Y64.4986
G01 X6.7212 Y64.4673
G01 X6.7801 Y64.4369
G01 X6.8404 Y64.4086
G01 X6.9021 Y64.3822
G01 X6.9640 Y64.3576
G01 X7.0265 Y64.3342
G01 X7.0897 Y64.3138
G01 X7.1536 Y64.2951
G01 X7.2180 Y64.2775
G01 X7.2832 Y64.2629
G01 X7.3488 Y64.2502
G01 X7.4147 Y64.2394
G01 X7.4812 Y64.2296
G01 X7.5464 Y64.2228
G01 X7.6129 Y64.2179
G01 X7.6795 Y64.2150
G01 X7.7470 Y64.2140
G01 X7.8163 Y64.2150
G01 X7.8869 Y64.2189
G01 X7.9565 Y64.2238
G01 X8.0268 Y64.2316
G01 X8.0959 Y64.2414
G01 X8.1645 Y64.2541
G01 X8.2329 Y64.2678
G01 X8.3690 Y64.3030
G01 X8.4353 Y64.3245
G01 X8.5019 Y64.3470
G01 X8.5675 Y64.3724
G01 X8.6331 Y64.3993
G01 X8.6555 Y64.4072
G01 X8.6613 Y64.4088
G01 X8.6673 Y64.4098
G01 X8.6883 Y64.4118
G01 X8.6961 Y64.4119
G01 X8.7170 Y64.4103
G01 X8.7369 Y64.4053
G01 X8.7426 Y64.4034
G01 X8.7615 Y64.3957
G01 X8.7782 Y64.3856
G01 X8.7955 Y64.3726
G01 X8.8004 Y64.3684
G01 X22.1325 Y51.0362
G01 X22.1906 Y50.9893
G01 X22.2213 Y50.9689
G01 X22.2524 Y50.9491
G01 X22.2841 Y50.9319
G01 X22.3523 Y50.9016
G01 X22.3876 Y50.8895
G01 X22.4233 Y50.8782
G01 X22.4582 Y50.8700
G01 X22.4946 Y50.8634
G01 X22.5311 Y50.8588
G01 X22.5685 Y50.8560
G01 X22.6066 Y50.8550
G01 X27.5220 Y50.8550
G01 X27.5403 Y50.8539
G01 X27.5475 Y50.8529
G01 X27.5656 Y50.8488
G01 X27.5846 Y50.8414
G01 X27.5912 Y50.8382
G01 X27.6032 Y50.8312
G01 X27.6230 Y50.8174
G01 X27.6294 Y50.8110
G01 X27.6703 Y50.7623
G01 X27.7038 Y50.7269
G01 X27.7389 Y50.6918
G01 X27.7743 Y50.6583
G01 X27.8107 Y50.6277
G01 X27.8491 Y50.5970
G01 X27.8881 Y50.5694
G01 X27.9299 Y50.5421
G01 X27.9711 Y50.5163
G01 X28.0141 Y50.4933
G01 X28.0578 Y50.4710
G01 X28.1018 Y50.4509
G01 X28.1477 Y50.4324
G01 X28.1672 Y50.4238
G01 X28.1845 Y50.4121
G01 X28.1896 Y50.4080
G01 X28.2006 Y50.3980
G01 X28.2054 Y50.3930
G01 X28.2154 Y50.3810
G01 X28.2184 Y50.3770
G01 X28.2210 Y50.3727
G01 X28.2300 Y50.3557
G01 X28.2360 Y50.3417
G01 X28.2383 Y50.3349
G01 X28.2423 Y50.3199
G01 X28.2439 Y50.3103
G01 X28.2449 Y50.2953
G01 X28.2449 Y50.2889
G01 X28.2433 Y50.2680
G01 X28.2383 Y50.2481
G01 X28.2360 Y50.2413
G01 X28.2300 Y50.2273
G01 X28.2184 Y50.2060
G01 X28.2054 Y50.1900
G01 X28.2006 Y50.1850
G01 X28.1896 Y50.1750
G01 X28.1845 Y50.1709
G01 X28.1715 Y50.1619
G01 X28.1672 Y50.1592
G01 X28.1627 Y50.1570
G01 X28.1018 Y50.1321
G01 X28.0578 Y50.1120
G01 X28.0141 Y50.0897
G01 X27.9711 Y50.0667
G01 X27.9299 Y50.0409
G01 X27.8881 Y50.0136
G01 X27.8491 Y49.9860
G01 X27.8107 Y49.9553
G01 X27.7743 Y49.9247
G01 X27.7389 Y49.8912
G01 X27.7038 Y49.8561
G01 X27.6703 Y49.8207
G01 X27.6294 Y49.7720
G01 X27.6264 Y49.7687
G01 X27.6195 Y49.7629
G01 X27.6065 Y49.7539
G01 X27.5912 Y49.7448
G01 X27.5846 Y49.7416
G01 X27.5696 Y49.7356
G01 X27.5615 Y49.7331
G01 X27.5475 Y49.7301
G01 X27.5403 Y49.7291
G01 X27.5253 Y49.7281
G01 X20.4210 Y49.7280
G01 X20.3970 Y49.7297
G01 X20.3771 Y49.7347
G01 X20.3714 Y49.7366
G01 X20.3564 Y49.7426
G01 X20.3502 Y49.7456
G01 X20.3315 Y49.7566
G01 X20.3136 Y49.7726
G01 X9.7986 Y60.2866
G01 X9.7944 Y60.2915
G01 X9.7814 Y60.3088
G01 X9.7713 Y60.3255
G01 X9.7636 Y60.3444
G01 X9.7617 Y60.3501
G01 X9.7567 Y60.3700
G01 X9.7551 Y60.3909
G01 X9.7552 Y60.3987
G01 X9.7572 Y60.4197
G01 X9.7582 Y60.4257
G01 X9.7598 Y60.4315
G01 X9.7677 Y60.4539
G01 X9.7946 Y60.5195
G01 X9.8200 Y60.5851
G01 X9.8425 Y60.6517
G01 X9.8640 Y60.7180
G01 X9.8992 Y60.8541
G01 X9.9129 Y60.9225
G01 X9.9256 Y60.9911
G01 X9.9354 Y61.0602
G01 X9.9432 Y61.1305
G01 X9.9481 Y61.2001
G01 X9.9520 Y61.2707
G01 X9.9530 Y61.3410
G01 X9.9520 Y61.4075
G01 X9.9491 Y61.4741
G01 X9.9442 Y61.5406
G01 X9.9374 Y61.6058
G01 X9.9276 Y61.6723
G01 X9.9168 Y61.7382
G01 X9.9041 Y61.8038
G01 X9.8895 Y61.8690
G01 X9.8719 Y61.9334
G01 X9.8532 Y61.9973
G01 X9.8328 Y62.0605
G01 X9.8094 Y62.1230
G01 X9.7848 Y62.1849
G01 X9.7584 Y62.2466
G01 X9.7301 Y62.3069
G01 X9.6997 Y62.3658
G01 X9.6684 Y62.4245
G01 X9.6343 Y62.4821
G01 X9.5989 Y62.5390
G01 X9.5628 Y62.5937
G01 X9.5237 Y62.6483
G01 X9.4837 Y62.7011
G01 X9.4415 Y62.7531
G01 X9.3987 Y62.8037
G01 X9.3527 Y62.8526
G01 X9.3066 Y62.9006
G01 X9.2586 Y62.9467
G01 X9.2097 Y62.9927
G01 X9.1591 Y63.0355
G01 X9.1071 Y63.0777
G01 X9.0543 Y63.1177
G01 X8.9997 Y63.1568
G01 X8.9450 Y63.1929
G01 X8.8881 Y63.2283
G01 X8.8305 Y63.2624
G01 X8.7718 Y63.2937
G01 X8.7129 Y63.3241
G01 X8.6526 Y63.3524
G01 X8.5909 Y63.3788
G01 X8.5290 Y63.4034
G01 X8.4665 Y63.4268
G01 X8.4033 Y63.4472
G01 X8.3394 Y63.4659
G01 X8.2750 Y63.4835
G01 X8.2098 Y63.4981
G01 X8.1442 Y63.5108
G01 X8.0783 Y63.5216
G01 X8.0118 Y63.5314
G01 X7.9466 Y63.5382
G01 X7.8801 Y63.5431
G01 X7.8135 Y63.5460
G01 X7.7470 Y63.5470
G01 X7.6795 Y63.5460
G01 X7.6129 Y63.5431
G01 X7.5464 Y63.5382
G01 X7.4812 Y63.5314
G01 X7.4147 Y63.5216
G01 X7.3488 Y63.5108
G01 X7.2832 Y63.4981
G01 X7.2180 Y63.4835
G01 X7.1536 Y63.4659
G01 X7.0897 Y63.4472
G01 X7.0265 Y63.4268
G01 X6.9640 Y63.4034
G01 X6.9021 Y63.3788
G01 X6.8404 Y63.3524
G01 X6.7801 Y63.3241
G01 X6.7212 Y63.2937
G01 X6.6625 Y63.2624
G01 X6.6049 Y63.2283
G01 X6.5480 Y63.1929
G01 X6.4933 Y63.1568
G01 X6.4387 Y63.1177
G01 X6.3859 Y63.0777
G01 X6.3339 Y63.0355
G01 X6.2833 Y62.9927
G01 X6.2344 Y62.9467
G01 X6.1864 Y62.9006
G01 X6.1403 Y62.8526
G01 X6.0943 Y62.8037
G01 X6.0515 Y62.7531
G01 X6.0093 Y62.7011
G01 X5.9693 Y62.6483
G01 X5.9302 Y62.5937
G01 X5.8941 Y62.5390
G01 X5.8587 Y62.4821
G01 X5.8246 Y62.4245
G01 X5.7933 Y62.3658
G01 X5.7629 Y62.3069
G01 X5.7346 Y62.2466
G01 X5.7082 Y62.1849
G01 X5.6836 Y62.1230
G01 X5.6602 Y62.0605
G01 X5.6398 Y61.9973
G01 X5.6211 Y61.9334
G01 X5.6035 Y61.8690
G01 X5.5889 Y61.8038
G01 X5.5762 Y61.7382
G01 X5.5654 Y61.6723
G01 X5.5556 Y61.6058
G01 X5.5488 Y61.5406
G01 X5.5439 Y61.4741
G01 X5.5410 Y61.4075
G01 X5.5400 Y61.3410
G01 X5.5410 Y61.2735
G01 X5.5439 Y61.2069
G01 X5.5488 Y61.1404
G01 X5.5556 Y61.0752
G01 X5.5654 Y61.0087
G01 X5.5762 Y60.9428
G01 X5.5889 Y60.8772
G01 X5.6035 Y60.8120
G01 X5.6211 Y60.7476
G01 X5.6398 Y60.6837
G01 X5.6602 Y60.6205
G01 X5.6836 Y60.5580
G01 X5.7082 Y60.4961
G01 X5.7346 Y60.4344
G01 X5.7629 Y60.3741
G01 X5.7933 Y60.3152
G01 X5.8246 Y60.2565
G01 X5.8587 Y60.1989
G01 X5.8941 Y60.1420
G01 X5.9302 Y60.0873
G01 X5.9693 Y60.0327
G01 X6.0093 Y59.9799
G01 X6.0515 Y59.9279
G01 X6.0943 Y59.8773
G01 X6.1403 Y59.8284
G01 X6.1864 Y59.7804
G01 X6.2344 Y59.7343
G01 X6.2833 Y59.6883
G01 X6.3339 Y59.6455
G01 X6.3859 Y59.6033
G01 X6.4387 Y59.5633
G01 X6.4933 Y59.5242
G01 X6.5480 Y59.4881
G01 X6.6049 Y59.4527
G01 X6.6625 Y59.4186
G01 X6.7212 Y59.3873
G01 X6.7801 Y59.3569
G01 X6.8404 Y59.3286
G01 X6.9021 Y59.3022
G01 X6.9640 Y59.2776
G01 X7.0265 Y59.2542
G01 X7.0897 Y59.2338
G01 X7.1536 Y59.2151
G01 X7.2180 Y59.1975
G01 X7.2832 Y59.1829
G01 X7.3488 Y59.1702
G01 X7.4147 Y59.1594
G01 X7.4812 Y59.1496
G01 X7.5464 Y59.1428
G01 X7.6129 Y59.1379
G01 X7.6795 Y59.1350
G01 X7.7470 Y59.1340
G01 X7.8163 Y59.1350
G01 X7.8869 Y59.1389
G01 X7.9565 Y59.1438
G01 X8.0268 Y59.1516
G01 X8.0959 Y59.1614
G01 X8.1645 Y59.1741
G01 X8.2329 Y59.1878
G01 X8.3690 Y59.2230
G01 X8.4353 Y59.2445
G01 X8.5019 Y59.2670
G01 X8.5675 Y59.2924
G01 X8.6331 Y59.3193
G01 X8.6555 Y59.3272
G01 X8.6613 Y59.3288
G01 X8.6673 Y59.3298
G01 X8.6883 Y59.3318
G01 X8.6961 Y59.3319
G01 X8.7170 Y59.3303
G01 X8.7369 Y59.3253
G01 X8.7426 Y59.3234
G01 X8.7615 Y59.3157
G01 X8.7782 Y59.3056
G01 X8.7955 Y59.2926
G01 X8.8004 Y59.2884
G01 X19.5925 Y48.4962
G01 X19.6506 Y48.4493
G01 X19.6813 Y48.4289
G01 X19.7124 Y48.4091
G01 X19.7441 Y48.3919
G01 X19.8123 Y48.3616
G01 X19.8476 Y48.3495
G01 X19.8833 Y48.3382
G01 X19.9182 Y48.3300
G01 X19.9546 Y48.3234
G01 X19.9911 Y48.3188
G01 X20.0285 Y48.3160
G01 X20.0666 Y48.3150
G01 X27.5220 Y48.3150
G01 X27.5403 Y48.3139
G01 X27.5475 Y48.3129
G01 X27.5656 Y48.3088
G01 X27.5846 Y48.3014
G01 X27.5912 Y48.2982
G01 X27.6032 Y48.2912
G01 X27.6230 Y48.2774
G01 X27.6294 Y48.2710
G01 X27.6703 Y48.2223
G01 X27.7038 Y48.1869
G01 X27.7389 Y48.1518
G01 X27.7743 Y48.1183
G01 X27.8107 Y48.0877
G01 X27.8491 Y48.0570
G01 X27.8881 Y48.0294
G01 X27.9299 Y48.0021
G01 X27.9711 Y47.9763
G01 X28.0141 Y47.9533
G01 X28.0578 Y47.9310
G01 X28.1018 Y47.9109
G01 X28.1477 Y47.8924
G01 X28.1672 Y47.8838
G01 X28.1845 Y47.8721
G01 X28.1896 Y47.8680
G01 X28.2006 Y47.8580
G01 X28.2054 Y47.8530
G01 X28.2184 Y47.8370
G01 X28.2300 Y47.8157
G01 X28.2360 Y47.8017
G01 X28.2383 Y47.7949
G01 X28.2433 Y47.7751
G01 X28.2449 Y47.7553
G01 X28.2449 Y47.7489
G01 X28.2433 Y47.7280
G01 X28.2383 Y47.7081
G01 X28.2360 Y47.7013
G01 X28.2300 Y47.6873
G01 X28.2184 Y47.6660
G01 X28.2054 Y47.6500
G01 X28.2006 Y47.6450
G01 X28.1896 Y47.6350
G01 X28.1845 Y47.6309
G01 X28.1715 Y47.6219
G01 X28.1672 Y47.6192
G01 X28.1627 Y47.6170
G01 X28.1018 Y47.5921
G01 X28.0578 Y47.5720
G01 X28.0141 Y47.5497
G01 X27.9711 Y47.5267
G01 X27.9299 Y47.5009
G01 X27.8881 Y47.4736
G01 X27.8491 Y47.4460
G01 X27.8107 Y47.4153
G01 X27.7743 Y47.3847
G01 X27.7389 Y47.3512
G01 X27.7038 Y47.3161
G01 X27.6703 Y47.2807
G01 X27.6294 Y47.2320
G01 X27.6230 Y47.2256
G01 X27.6065 Y47.2139
G01 X27.5912 Y47.2048
G01 X27.5846 Y47.2016
G01 X27.5696 Y47.1956
G01 X27.5615 Y47.1931
G01 X27.5475 Y47.1901
G01 X27.5403 Y47.1891
G01 X27.5253 Y47.1881
G01 X17.8810 Y47.1880
G01 X17.8619 Y47.1891
G01 X17.8521 Y47.1907
G01 X17.8371 Y47.1947
G01 X17.8314 Y47.1966
G01 X17.8164 Y47.2026
G01 X17.8102 Y47.2056
G01 X17.7915 Y47.2166
G01 X17.7736 Y47.2326
G01 X9.7986 Y55.2066
G01 X9.7944 Y55.2115
G01 X9.7814 Y55.2288
G01 X9.7713 Y55.2455
G01 X9.7636 Y55.2644
G01 X9.7617 Y55.2701
G01 X9.7577 Y55.2851
G01 X9.7561 Y55.2949
G01 X9.7550 Y55.3148
G01 X9.7572 Y55.3397
G01 X9.7582 Y55.3457
G01 X9.7598 Y55.3515
G01 X9.7677 Y55.3739
G01 X9.7946 Y55.4395
G01 X9.8200 Y55.5051
G01 X9.8425 Y55.5717
G01 X9.8640 Y55.6380
G01 X9.8992 Y55.7741
G01 X9.9129 Y55.8425
G01 X9.9256 Y55.9111
G01 X9.9354 Y55.9802
G01 X9.9432 Y56.0505
G01 X9.9481 Y56.1201
G01 X9.9520 Y56.1907
G01 X9.9530 Y56.2610
G01 X9.9520 Y56.3275
G01 X9.9491 Y56.3941
G01 X9.9442 Y56.4606
G01 X9.9374 Y56.5258
G01 X9.9276 Y56.5923
G01 X9.9168 Y56.6582
G01 X9.9041 Y56.7238
G01 X9.8895 Y56.7890
G01 X9.8719 Y56.8534
G01 X9.8532 Y56.9173
G01 X9.8328 Y56.9805
G01 X9.8094 Y57.0430
G01 X9.7848 Y57.1049
G01 X9.7584 Y57.1666
G01 X9.7301 Y57.2269
G01 X9.6997 Y57.2858
G01 X9.6684 Y57.3445
G01 X9.6343 Y57.4021
G01 X9.5989 Y57.4590
G01 X9.5628 Y57.5137
G01 X9.5237 Y57.5683
G01 X9.4837 Y57.6211
G01 X9.4415 Y57.6731
G01 X9.3987 Y57.7237
G01 X9.3527 Y57.7726
G01 X9.3066 Y57.8206
G01 X9.2586 Y57.8667
G01 X9.2097 Y57.9127
G01 X9.1591 Y57.9555
G01 X9.1071 Y57.9977
G01 X9.0543 Y58.0377
G01 X8.9997 Y58.0768
G01 X8.9450 Y58.1129
G01 X8.8881 Y58.1483
G01 X8.8305 Y58.1824
G01 X8.7718 Y58.2137
G01 X8.7129 Y58.2441
G01 X8.6526 Y58.2724
G01 X8.5909 Y58.2988
G01 X8.5290 Y58.3234
G01 X8.4665 Y58.3468
G01 X8.4033 Y58.3672
G01 X8.3394 Y58.3859
G01 X8.2750 Y58.4035
G01 X8.2098 Y58.4181
G01 X8.1442 Y58.4308
G01 X8.0783 Y58.4416
G01 X8.0118 Y58.4514
G01 X7.9466 Y58.4582
G01 X7.8801 Y58.4631
G01 X7.8135 Y58.4660
G01 X7.7470 Y58.4670
G01 X7.6795 Y58.4660
G01 X7.6129 Y58.4631
G01 X7.5464 Y58.4582
G01 X7.4812 Y58.4514
G01 X7.4147 Y58.4416
G01 X7.3488 Y58.4308
G01 X7.2832 Y58.4181
G01 X7.2180 Y58.4035
G01 X7.1536 Y58.3859
G01 X7.0897 Y58.3672
G01 X7.0265 Y58.3468
G01 X6.9640 Y58.3234
G01 X6.9021 Y58.2988
G01 X6.8404 Y58.2724
G01 X6.7801 Y58.2441
G01 X6.7212 Y58.2137
G01 X6.6625 Y58.1824
G01 X6.6049 Y58.1483
G01 X6.5480 Y58.1129
G01 X6.4933 Y58.0768
G01 X6.4387 Y58.0377
G01 X6.3859 Y57.9977
G01 X6.3339 Y57.9555
G01 X6.2833 Y57.9127
G01 X6.2344 Y57.8667
G01 X6.1864 Y57.8206
G01 X6.1403 Y57.7726
G01 X6.0943 Y57.7237
G01 X6.0515 Y57.6731
G01 X6.0093 Y57.6211
G01 X5.9693 Y57.5683
G01 X5.9302 Y57.5137
G01 X5.8941 Y57.4590
G01 X5.8587 Y57.4021
G01 X5.8246 Y57.3445
G01 X5.7933 Y57.2858
G01 X5.7629 Y57.2269
G01 X5.7346 Y57.1666
G01 X5.7082 Y57.1049
G01 X5.6836 Y57.0430
G01 X5.6602 Y56.9805
G01 X5.6398 Y56.9173
G01 X5.6211 Y56.8534
G01 X5.6035 Y56.7890
G01 X5.5889 Y56.7238
G01 X5.5762 Y56.6582
G01 X5.5654 Y56.5923
G01 X5.5556 Y56.5258
G01 X5.5488 Y56.4606
G01 X5.5439 Y56.3941
G01 X5.5410 Y56.3275
G01 X5.5400 Y56.2610
G01 X5.5410 Y56.1935
G01 X5.5439 Y56.1269
G01 X5.5488 Y56.0604
G01 X5.5556 Y55.9952
G01 X5.5654 Y55.9287
G01 X5.5762 Y55.8628
G01 X5.5889 Y55.7972
G01 X5.6035 Y55.7320
G01 X5.6211 Y55.6676
G01 X5.6398 Y55.6037
G01 X5.6602 Y55.5405
G01 X5.6836 Y55.4780
G01 X5.7082 Y55.4161
G01 X5.7346 Y55.3544
G01 X5.7629 Y55.2941
G01 X5.7933 Y55.2352
G01 X5.8246 Y55.1765
G01 X5.8587 Y55.1189
G01 X5.8941 Y55.0620
G01 X5.9302 Y55.0073
G01 X5.9693 Y54.9527
G01 X6.0093 Y54.8999
G01 X6.0515 Y54.8479
G01 X6.0943 Y54.7973
G01 X6.1403 Y54.7484
G01 X6.1864 Y54.7004
G01 X6.2344 Y54.6543
G01 X6.2833 Y54.6083
G01 X6.3339 Y54.5655
G01 X6.3859 Y54.5233
G01 X6.4387 Y54.4833
G01 X6.4933 Y54.4442
G01 X6.5480 Y54.4081
G01 X6.6049 Y54.3727
G01 X6.6625 Y54.3386
G01 X6.7212 Y54.3073
G01 X6.7801 Y54.2769
G01 X6.8404 Y54.2486
G01 X6.9021 Y54.2222
G01 X6.9640 Y54.1976
G01 X7.0265 Y54.1742
G01 X7.0897 Y54.1538
G01 X7.1536 Y54.1351
G01 X7.2180 Y54.1175
G01 X7.2832 Y54.1029
G01 X7.3488 Y54.0902
G01 X7.4147 Y54.0794
G01 X7.4812 Y54.0696
G01 X7.5464 Y54.0628
G01 X7.6129 Y54.0579
G01 X7.6795 Y54.0550
G01 X7.7470 Y54.0540
G01 X7.8163 Y54.0550
G01 X7.8869 Y54.0589
G01 X7.9565 Y54.0638
G01 X8.0268 Y54.0716
G01 X8.0959 Y54.0814
G01 X8.1645 Y54.0941
G01 X8.2329 Y54.1078
G01 X8.3690 Y54.1430
G01 X8.4353 Y54.1645
G01 X8.5019 Y54.1870
G01 X8.5675 Y54.2124
G01 X8.6331 Y54.2393
G01 X8.6555 Y54.2472
G01 X8.6613 Y54.2488
G01 X8.6673 Y54.2498
G01 X8.6883 Y54.2518
G01 X8.6961 Y54.2519
G01 X8.7170 Y54.2503
G01 X8.7369 Y54.2453
G01 X8.7426 Y54.2434
G01 X8.7615 Y54.2357
G01 X8.7782 Y54.2256
G01 X8.7955 Y54.2126
G01 X8.8004 Y54.2084
G01 X17.0525 Y45.9562
G01 X17.1106 Y45.9093
G01 X17.1413 Y45.8889
G01 X17.1724 Y45.8691
G01 X17.2041 Y45.8519
G01 X17.2723 Y45.8216
G01 X17.3076 Y45.8095
G01 X17.3433 Y45.7982
G01 X17.3782 Y45.7900
G01 X17.4146 Y45.7834
G01 X17.4511 Y45.7788
G01 X17.4885 Y45.7760
G01 X17.5266 Y45.7750
G01 X27.5253 Y45.7749
G01 X27.5403 Y45.7739
G01 X27.5475 Y45.7729
G01 X27.5615 Y45.7699
G01 X27.5696 Y45.7674
G01 X27.5846 Y45.7614
G01 X27.5912 Y45.7582
G01 X27.6065 Y45.7491
G01 X27.6230 Y45.7374
G01 X27.6294 Y45.7310
G01 X27.6703 Y45.6823
G01 X27.7038 Y45.6469
G01 X27.7389 Y45.6118
G01 X27.7743 Y45.5783
G01 X27.8107 Y45.5477
G01 X27.8491 Y45.5170
G01 X27.8881 Y45.4894
G01 X27.9299 Y45.4621
G01 X27.9711 Y45.4363
G01 X28.0141 Y45.4133
G01 X28.0578 Y45.3910
G01 X28.1018 Y45.3709
G01 X28.1477 Y45.3524
G01 X28.1672 Y45.3438
G01 X28.1845 Y45.3321
G01 X28.1896 Y45.3280
G01 X28.2006 Y45.3180
G01 X28.2054 Y45.3130
G01 X28.2184 Y45.2970
G01 X28.2280 Y45.2797
G01 X28.2360 Y45.2617
G01 X28.2383 Y45.2549
G01 X28.2423 Y45.2399
G01 X28.2439 Y45.2303
G01 X28.2449 Y45.2153
G01 X28.2449 Y45.2089
G01 X28.2433 Y45.1880
G01 X28.2383 Y45.1681
G01 X28.2360 Y45.1613
G01 X28.2280 Y45.1433
G01 X28.2184 Y45.1260
G01 X28.2054 Y45.1100
G01 X28.2006 Y45.1050
G01 X28.1896 Y45.0950
G01 X28.1845 Y45.0909
G01 X28.1715 Y45.0819
G01 X28.1672 Y45.0792
G01 X28.1627 Y45.0770
G01 X28.1018 Y45.0521
G01 X28.0578 Y45.0320
G01 X28.0141 Y45.0097
G01 X27.9711 Y44.9867
G01 X27.9299 Y44.9609
G01 X27.8881 Y44.9336
G01 X27.8491 Y44.9060
G01 X27.8107 Y44.8753
G01 X27.7743 Y44.8447
G01 X27.7389 Y44.8112
G01 X27.7038 Y44.7761
G01 X27.6703 Y44.7407
G01 X27.6294 Y44.6920
G01 X27.6230 Y44.6856
G01 X27.6065 Y44.6739
G01 X27.5912 Y44.6648
G01 X27.5846 Y44.6616
G01 X27.5696 Y44.6556
G01 X27.5615 Y44.6531
G01 X27.5475 Y44.6501
G01 X27.5403 Y44.6491
G01 X27.5253 Y44.6481
G01 X15.3410 Y44.6480
G01 X15.3219 Y44.6491
G01 X15.3121 Y44.6507
G01 X15.2971 Y44.6547
G01 X15.2914 Y44.6566
G01 X15.2764 Y44.6626
G01 X15.2702 Y44.6656
G01 X15.2515 Y44.6766
G01 X15.2336 Y44.6926
G01 X9.7986 Y50.1266
G01 X9.7944 Y50.1315
G01 X9.7814 Y50.1488
G01 X9.7713 Y50.1655
G01 X9.7636 Y50.1844
G01 X9.7617 Y50.1901
G01 X9.7577 Y50.2051
G01 X9.7561 Y50.2149
G01 X9.7550 Y50.2348
G01 X9.7572 Y50.2597
G01 X9.7582 Y50.2657
G01 X9.7598 Y50.2715
G01 X9.7677 Y50.2939
G01 X9.7946 Y50.3595
G01 X9.8200 Y50.4251
G01 X9.8425 Y50.4917
G01 X9.8640 Y50.5580
G01 X9.8992 Y50.6941
G01 X9.9129 Y50.7625
G01 X9.9256 Y50.8311
G01 X9.9354 Y50.9002
G01 X9.9432 Y50.9705
G01 X9.9481 Y51.0401
G01 X9.9520 Y51.1107
G01 X9.9530 Y51.1810
G01 X9.9520 Y51.2475
G01 X9.9491 Y51.3141
G01 X9.9442 Y51.3806
G01 X9.9374 Y51.4458
G01 X9.9276 Y51.5123
G01 X9.9168 Y51.5782
G01 X9.9041 Y51.6438
G01 X9.8895 Y51.7090
G01 X9.8719 Y51.7734
G01 X9.8532 Y51.8373
G01 X9.8328 Y51.9005
G01 X9.8094 Y51.9630
G01 X9.7848 Y52.0249
G01 X9.7584 Y52.0866
G01 X9.7301 Y52.1469
G01 X9.6997 Y52.2058
G01 X9.6684 Y52.2645
G01 X9.6343 Y52.3221
G01 X9.5989 Y52.3790
G01 X9.5628 Y52.4337
G01 X9.5237 Y52.4883
G01 X9.4837 Y52.5411
G01 X9.4415 Y52.5931
G01 X9.3987 Y52.6437
G01 X9.3527 Y52.6926
G01 X9.3066 Y52.7406
G01 X9.2586 Y52.7867
G01 X9.2097 Y52.8327
G01 X9.1591 Y52.8755
G01 X9.1071 Y52.9177
G01 X9.0543 Y52.9577
G01 X8.9997 Y52.9968
G01 X8.9450 Y53.0329
G01 X8.8881 Y53.0683
G01 X8.8305 Y53.1024
G01 X8.7718 Y53.1337
G01 X8.7129 Y53.1641
G01 X8.6526 Y53.1924
G01 X8.5909 Y53.2188
G01 X8.5290 Y53.2434
G01 X8.4665 Y53.2668
G01 X8.4033 Y53.2872
G01 X8.3394 Y53.3059
G01 X8.2750 Y53.3235
G01 X8.2098 Y53.3381
G01 X8.1442 Y53.3508
G01 X8.0783 Y53.3616
G01 X8.0118 Y53.3714
G01 X7.9466 Y53.3782
G01 X7.8801 Y53.3831
G01 X7.8135 Y53.3860
G01 X7.7470 Y53.3870
G01 X7.6795 Y53.3860
G01 X7.6129 Y53.3831
G01 X7.5464 Y53.3782
G01 X7.4812 Y53.3714
G01 X7.4147 Y53.3616
G01 X7.3488 Y53.3508
G01 X7.2832 Y53.3381
G01 X7.2180 Y53.3235
G01 X7.1536 Y53.3059
G01 X7.0897 Y53.2872
G01 X7.0265 Y53.2668
G01 X6.9640 Y53.2434
G01 X6.9021 Y53.2188
G01 X6.8404 Y53.1924
G01 X6.7801 Y53.1641
G01 X6.7212 Y53.1337
G01 X6.6625 Y53.1024
G01 X6.6049 Y53.0683
G01 X6.5480 Y53.0329
G01 X6.4933 Y52.9968
G01 X6.4387 Y52.9577
G01 X6.3859 Y52.9177
G01 X6.3339 Y52.8755
G01 X6.2833 Y52.8327
G01 X6.2344 Y52.7867
G01 X6.1864 Y52.7406
G01 X6.1403 Y52.6926
G01 X6.0943 Y52.6437
G01 X6.0515 Y52.5931
G01 X6.0093 Y52.5411
G01 X5.9693 Y52.4883
G01 X5.9302 Y52.4337
G01 X5.8941 Y52.3790
G01 X5.8587 Y52.3221
G01 X5.8246 Y52.2645
G01 X5.7933 Y52.2058
G01 X5.7629 Y52.1469
G01 X5.7346 Y52.0866
G01 X5.7082 Y52.0249
G01 X5.6836 Y51.9630
G01 X5.6602 Y51.9005
G01 X5.6398 Y51.8373
G01 X5.6211 Y51.7734
G01 X5.6035 Y51.7090
G01 X5.5889 Y51.6438
G01 X5.5762 Y51.5782
G01 X5.5654 Y51.5123
G01 X5.5556 Y51.4458
G01 X5.5488 Y51.3806
G01 X5.5439 Y51.3141
G01 X5.5410 Y51.2475
G01 X5.5400 Y51.1810
G01 X5.5410 Y51.1135
G01 X5.5439 Y51.0469
G01 X5.5488 Y50.9804
G01 X5.5556 Y50.9152
G01 X5.5654 Y50.8487
G01 X5.5762 Y50.7828
G01 X5.5889 Y50.7172
G01 X5.6035 Y50.6520
G01 X5.6211 Y50.5876
G01 X5.6398 Y50.5237
G01 X5.6602 Y50.4605
G01 X5.6836 Y50.3980
G01 X5.7082 Y50.3361
G01 X5.7346 Y50.2744
G01 X5.7629 Y50.2141
G01 X5.7933 Y50.1552
G01 X5.8246 Y50.0965
G01 X5.8587 Y50.0389
G01 X5.8941 Y49.9820
G01 X5.9302 Y49.9273
G01 X5.9693 Y49.8727
G01 X6.0093 Y49.8199
G01 X6.0515 Y49.7679
G01 X6.0943 Y49.7173
G01 X6.1403 Y49.6684
G01 X6.1864 Y49.6204
G01 X6.2344 Y49.5743
G01 X6.2833 Y49.5283
G01 X6.3339 Y49.4855
G01 X6.3859 Y49.4433
G01 X6.4387 Y49.4033
G01 X6.4933 Y49.3642
G01 X6.5480 Y49.3281
G01 X6.6049 Y49.2927
G01 X6.6625 Y49.2586
G01 X6.7212 Y49.2273
G01 X6.7801 Y49.1969
G01 X6.8404 Y49.1686
G01 X6.9021 Y49.1422
G01 X6.9640 Y49.1176
G01 X7.0265 Y49.0942
G01 X7.0897 Y49.0738
G01 X7.1536 Y49.0551
G01 X7.2180 Y49.0375
G01 X7.2832 Y49.0229
G01 X7.3488 Y49.0102
G01 X7.4147 Y48.9994
G01 X7.4812 Y48.9896
G01 X7.5464 Y48.9828
G01 X7.6129 Y48.9779
G01 X7.6795 Y48.9750
G01 X7.7470 Y48.9740
G01 X7.8163 Y48.9750
G01 X7.8869 Y48.9789
G01 X7.9565 Y48.9838
G01 X8.0268 Y48.9916
G01 X8.0959 Y49.0014
G01 X8.1645 Y49.0141
G01 X8.2329 Y49.0278
G01 X8.3690 Y49.0630
G01 X8.4353 Y49.0845
G01 X8.5019 Y49.1070
G01 X8.5675 Y49.1324
G01 X8.6331 Y49.1593
G01 X8.6555 Y49.1672
G01 X8.6613 Y49.1688
G01 X8.6673 Y49.1698
G01 X8.6922 Y49.1720
G01 X8.7121 Y49.1709
G01 X8.7219 Y49.1693
G01 X8.7369 Y49.1653
G01 X8.7426 Y49.1634
G01 X8.7576 Y49.1574
G01 X8.7652 Y49.1536
G01 X8.7825 Y49.1426
G01 X8.7955 Y49.1326
G01 X8.8004 Y49.1284
G01 X14.5125 Y43.4162
G01 X14.5706 Y43.3693
G01 X14.6013 Y43.3489
G01 X14.6324 Y43.3291
G01 X14.6641 Y43.3119
G01 X14.7323 Y43.2816
G01 X14.7676 Y43.2695
G01 X14.8033 Y43.2582
G01 X14.8382 Y43.2500
G01 X14.8746 Y43.2434
G01 X14.9111 Y43.2388
G01 X14.9485 Y43.2360
G01 X14.9866 Y43.2350
G01 X27.5253 Y43.2349
G01 X27.5403 Y43.2339
G01 X27.5475 Y43.2329
G01 X27.5615 Y43.2299
G01 X27.5696 Y43.2274
G01 X27.5846 Y43.2214
G01 X27.5912 Y43.2182
G01 X27.6065 Y43.2091
G01 X27.6230 Y43.1974
G01 X27.6294 Y43.1910
G01 X27.6703 Y43.1423
G01 X27.7038 Y43.1069
G01 X27.7389 Y43.0718
G01 X27.7743 Y43.0383
G01 X27.8107 Y43.0077
G01 X27.8491 Y42.9770
G01 X27.8881 Y42.9494
G01 X27.9299 Y42.9221
G01 X27.9711 Y42.8963
G01 X28.0141 Y42.8733
G01 X28.0578 Y42.8510
G01 X28.1018 Y42.8309
G01 X28.1477 Y42.8124
G01 X28.1672 Y42.8038
G01 X28.1845 Y42.7921
G01 X28.1896 Y42.7880
G01 X28.2006 Y42.7780
G01 X28.2054 Y42.7730
G01 X28.2184 Y42.7570
G01 X28.2280 Y42.7397
G01 X28.2360 Y42.7217
G01 X28.2383 Y42.7149
G01 X28.2423 Y42.6999
G01 X28.2439 Y42.6903
G01 X28.2449 Y42.6753
G01 X28.2449 Y42.6689
G01 X28.2439 Y42.6529
G01 X28.2423 Y42.6431
G01 X28.2383 Y42.6281
G01 X28.2360 Y42.6213
G01 X28.2300 Y42.6073
G01 X28.2210 Y42.5903
G01 X28.2184 Y42.5860
G01 X28.2154 Y42.5820
G01 X28.2054 Y42.5700
G01 X28.2006 Y42.5650
G01 X28.1896 Y42.5550
G01 X28.1845 Y42.5509
G01 X28.1715 Y42.5419
G01 X28.1672 Y42.5392
G01 X28.1627 Y42.5370
G01 X28.1018 Y42.5121
G01 X28.0578 Y42.4920
G01 X28.0141 Y42.4697
G01 X27.9711 Y42.4467
G01 X27.9299 Y42.4209
G01 X27.8881 Y42.3936
G01 X27.8491 Y42.3660
G01 X27.8107 Y42.3353
G01 X27.7743 Y42.3047
G01 X27.7389 Y42.2712
G01 X27.7038 Y42.2361
G01 X27.6703 Y42.2007
G01 X27.6294 Y42.1520
G01 X27.6230 Y42.1456
G01 X27.6065 Y42.1339
G01 X27.5912 Y42.1248
G01 X27.5846 Y42.1216
G01 X27.5696 Y42.1156
G01 X27.5615 Y42.1131
G01 X27.5475 Y42.1101
G01 X27.5403 Y42.1091
G01 X27.5253 Y42.1081
G01 X12.8010 Y42.1080
G01 X12.7770 Y42.1097
G01 X12.7571 Y42.1147
G01 X12.7514 Y42.1166
G01 X12.7364 Y42.1226
G01 X12.7302 Y42.1256
G01 X12.7162 Y42.1336
G01 X12.7115 Y42.1366
G01 X12.7072 Y42.1401
G01 X12.6937 Y42.1526
G01 X9.7987 Y45.0466
G01 X9.7944 Y45.0515
G01 X9.7844 Y45.0645
G01 X9.7734 Y45.0818
G01 X9.7696 Y45.0894
G01 X9.7636 Y45.1044
G01 X9.7617 Y45.1101
G01 X9.7567 Y45.1300
G01 X9.7550 Y45.1548
G01 X9.7572 Y45.1797
G01 X9.7582 Y45.1857
G01 X9.7598 Y45.1915
G01 X9.7677 Y45.2139
G01 X9.7946 Y45.2795
G01 X9.8200 Y45.3451
G01 X9.8425 Y45.4117
G01 X9.8640 Y45.4780
G01 X9.8992 Y45.6141
G01 X9.9129 Y45.6825
G01 X9.9256 Y45.7511
G01 X9.9354 Y45.8202
G01 X9.9432 Y45.8905
G01 X9.9481 Y45.9601
G01 X9.9520 Y46.0307
G01 X9.9530 Y46.1010
G01 X9.9520 Y46.1675
G01 X9.9491 Y46.2341
G01 X9.9442 Y46.3006
G01 X9.9374 Y46.3658
G01 X9.9276 Y46.4323
G01 X9.9168 Y46.4982
G01 X9.9041 Y46.5638
G01 X9.8895 Y46.6290
G01 X9.8719 Y46.6934
G01 X9.8532 Y46.7573
G01 X9.8328 Y46.8205
G01 X9.8094 Y46.8830
G01 X9.7848 Y46.9449
G01 X9.7584 Y47.0066
G01 X9.7301 Y47.0669
G01 X9.6997 Y47.1258
G01 X9.6684 Y47.1845
G01 X9.6343 Y47.2421
G01 X9.5989 Y47.2990
G01 X9.5628 Y47.3537
G01 X9.5237 Y47.4083
G01 X9.4837 Y47.4611
G01 X9.4415 Y47.5131
G01 X9.3987 Y47.5637
G01 X9.3527 Y47.6126
G01 X9.3066 Y47.6606
G01 X9.2586 Y47.7067
G01 X9.2097 Y47.7527
G01 X9.1591 Y47.7955
G01 X9.1071 Y47.8377
G01 X9.0543 Y47.8777
G01 X8.9997 Y47.9168
G01 X8.9450 Y47.9529
G01 X8.8881 Y47.9883
G01 X8.8305 Y48.0224
G01 X8.7718 Y48.0537
G01 X8.7129 Y48.0841
G01 X8.6526 Y48.1124
G01 X8.5909 Y48.1388
G01 X8.5290 Y48.1634
G01 X8.4665 Y48.1868
G01 X8.4033 Y48.2072
G01 X8.3394 Y48.2259
G01 X8.2750 Y48.2435
G01 X8.2098 Y48.2581
G01 X8.1442 Y48.2708
G01 X8.0783 Y48.2816
G01 X8.0118 Y48.2914
G01 X7.9466 Y48.2982
G01 X7.8801 Y48.3031
G01 X7.8135 Y48.3060
G01 X7.7470 Y48.3070
G01 X7.6795 Y48.3060
G01 X7.6129 Y48.3031
G01 X7.5464 Y48.2982
G01 X7.4812 Y48.2914
G01 X7.4147 Y48.2816
G01 X7.3488 Y48.2708
G01 X7.2832 Y48.2581
G01 X7.2180 Y48.2435
G01 X7.1536 Y48.2259
G01 X7.0897 Y48.2072
G01 X7.0265 Y48.1868
G01 X6.9640 Y48.1634
G01 X6.9021 Y48.1388
G01 X6.8404 Y48.1124
G01 X6.7801 Y48.0841
G01 X6.7212 Y48.0537
G01 X6.6625 Y48.0224
G01 X6.6049 Y47.9883
G01 X6.5480 Y47.9529
G01 X6.4933 Y47.9168
G01 X6.4387 Y47.8777
G01 X6.3859 Y47.8377
G01 X6.3339 Y47.7955
G01 X6.2833 Y47.7527
G01 X6.2344 Y47.7067
G01 X6.1864 Y47.6606
G01 X6.1403 Y47.6126
G01 X6.0943 Y47.5637
G01 X6.0515 Y47.5131
G01 X6.0093 Y47.4611
G01 X5.9693 Y47.4083
G01 X5.9302 Y47.3537
G01 X5.8941 Y47.2990
G01 X5.8587 Y47.2421
G01 X5.8246 Y47.1845
G01 X5.7933 Y47.1258
G01 X5.7629 Y47.0669
G01 X5.7346 Y47.0066
G01 X5.7082 Y46.9449
G01 X5.6836 Y46.8830
G01 X5.6602 Y46.8205
G01 X5.6398 Y46.7573
G01 X5.6211 Y46.6934
G01 X5.6035 Y46.6290
G01 X5.5889 Y46.5638
G01 X5.5762 Y46.4982
G01 X5.5654 Y46.4323
G01 X5.5556 Y46.3658
G01 X5.5488 Y46.3006
G01 X5.5439 Y46.2341
G01 X5.5410 Y46.1675
G01 X5.5400 Y46.1010
G01 X5.5410 Y46.0335
G01 X5.5439 Y45.9669
G01 X5.5488 Y45.9004
G01 X5.5556 Y45.8352
G01 X5.5654 Y45.7687
G01 X5.5762 Y45.7028
G01 X5.5889 Y45.6372
G01 X5.6035 Y45.5720
G01 X5.6211 Y45.5076
G01 X5.6398 Y45.4437
G01 X5.6602 Y45.3805
G01 X5.6836 Y45.3180
G01 X5.7082 Y45.2561
G01 X5.7346 Y45.1944
G01 X5.7629 Y45.1341
G01 X5.7933 Y45.0752
G01 X5.8246 Y45.0165
G01 X5.8587 Y44.9589
G01 X5.8941 Y44.9020
G01 X5.9302 Y44.8473
G01 X5.9693 Y44.7927
G01 X6.0093 Y44.7399
G01 X6.0515 Y44.6879
G01 X6.0943 Y44.6373
G01 X6.1403 Y44.5884
G01 X6.1864 Y44.5404
G01 X6.2344 Y44.4943
G01 X6.2833 Y44.4483
G01 X6.3339 Y44.4055
G01 X6.3859 Y44.3633
G01 X6.4387 Y44.3233
G01 X6.4933 Y44.2842
G01 X6.5480 Y44.2481
G01 X6.6049 Y44.2127
G01 X6.6625 Y44.1786
G01 X6.7212 Y44.1473
G01 X6.7801 Y44.1169
G01 X6.8404 Y44.0886
G01 X6.9021 Y44.0622
G01 X6.9640 Y44.0376
G01 X7.0265 Y44.0142
G01 X7.0897 Y43.9938
G01 X7.1536 Y43.9751
G01 X7.2180 Y43.9575
G01 X7.2832 Y43.9429
G01 X7.3488 Y43.9302
G01 X7.4147 Y43.9194
G01 X7.4812 Y43.9096
G01 X7.5464 Y43.9028
G01 X7.6129 Y43.8979
G01 X7.6795 Y43.8950
G01 X7.7470 Y43.8940
G01 X7.8163 Y43.8950
G01 X7.8869 Y43.8989
G01 X7.9565 Y43.9038
G01 X8.0268 Y43.9116
G01 X8.0959 Y43.9214
G01 X8.1645 Y43.9341
G01 X8.2329 Y43.9478
G01 X8.3690 Y43.9830
G01 X8.4353 Y44.0045
G01 X8.5019 Y44.0270
G01 X8.5675 Y44.0524
G01 X8.6331 Y44.0793
G01 X8.6555 Y44.0872
G01 X8.6613 Y44.0888
G01 X8.6673 Y44.0898
G01 X8.6922 Y44.0920
G01 X8.7170 Y44.0903
G01 X8.7369 Y44.0853
G01 X8.7426 Y44.0834
G01 X8.7576 Y44.0774
G01 X8.7652 Y44.0736
G01 X8.7782 Y44.0656
G01 X8.7955 Y44.0526
G01 X8.8004 Y44.0484
G01 X11.9725 Y40.8762
G01 X12.0306 Y40.8293
G01 X12.0613 Y40.8089
G01 X12.0924 Y40.7891
G01 X12.1241 Y40.7719
G01 X12.1923 Y40.7416
G01 X12.2276 Y40.7295
G01 X12.2633 Y40.7182
G01 X12.2982 Y40.7100
G01 X12.3346 Y40.7034
G01 X12.3711 Y40.6988
G01 X12.4085 Y40.6960
G01 X12.4466 Y40.6950
G01 X27.5253 Y40.6949
G01 X27.5403 Y40.6939
G01 X27.5475 Y40.6929
G01 X27.5615 Y40.6899
G01 X27.5696 Y40.6874
G01 X27.5846 Y40.6814
G01 X27.5912 Y40.6782
G01 X27.6065 Y40.6691
G01 X27.6230 Y40.6574
G01 X27.6294 Y40.6510
G01 X27.6703 Y40.6023
G01 X27.7038 Y40.5669
G01 X27.7389 Y40.5318
G01 X27.7743 Y40.4983
G01 X27.8107 Y40.4677
G01 X27.8491 Y40.4370
G01 X27.8881 Y40.4094
G01 X27.9299 Y40.3821
G01 X27.9711 Y40.3563
G01 X28.0141 Y40.3333
G01 X28.0578 Y40.3110
G01 X28.1018 Y40.2909
G01 X28.1477 Y40.2724
G01 X28.1672 Y40.2638
G01 X28.1845 Y40.2521
G01 X28.1896 Y40.2480
G01 X28.2006 Y40.2380
G01 X28.2054 Y40.2330
G01 X28.2184 Y40.2170
G01 X28.2280 Y40.1997
G01 X28.2360 Y40.1817
G01 X28.2383 Y40.1749
G01 X28.2423 Y40.1599
G01 X28.2439 Y40.1503
G01 X28.2449 Y40.1353
G01 X28.2449 Y40.1289
G01 X28.2439 Y40.1129
G01 X28.2423 Y40.1031
G01 X28.2383 Y40.0881
G01 X28.2360 Y40.0813
G01 X28.2300 Y40.0673
G01 X28.2210 Y40.0503
G01 X28.2184 Y40.0460
G01 X28.2154 Y40.0420
G01 X28.2054 Y40.0300
G01 X28.2006 Y40.0250
G01 X28.1896 Y40.0150
G01 X28.1845 Y40.0109
G01 X28.1715 Y40.0019
G01 X28.1672 Y39.9992
G01 X28.1627 Y39.9970
G01 X28.1018 Y39.9721
G01 X28.0578 Y39.9520
G01 X28.0141 Y39.9297
G01 X27.9711 Y39.9067
G01 X27.9299 Y39.8809
G01 X27.8881 Y39.8536
G01 X27.8491 Y39.8260
G01 X27.8107 Y39.7953
G01 X27.7743 Y39.7647
G01 X27.7389 Y39.7312
G01 X27.7038 Y39.6961
G01 X27.6703 Y39.6607
G01 X27.6294 Y39.6120
G01 X27.6230 Y39.6056
G01 X27.6065 Y39.5939
G01 X27.5912 Y39.5848
G01 X27.5846 Y39.5816
G01 X27.5696 Y39.5756
G01 X27.5615 Y39.5731
G01 X27.5475 Y39.5701
G01 X27.5403 Y39.5691
G01 X27.5220 Y39.5680
G01 X10.2610 Y39.5680
G01 X10.2370 Y39.5697
G01 X10.2171 Y39.5747
G01 X10.2114 Y39.5766
G01 X10.1964 Y39.5826
G01 X10.1902 Y39.5856
G01 X10.1715 Y39.5966
G01 X10.1537 Y39.6126
G01 X9.7987 Y39.9666
G01 X9.7944 Y39.9715
G01 X9.7844 Y39.9845
G01 X9.7814 Y39.9888
G01 X9.7713 Y40.0055
G01 X9.7636 Y40.0244
G01 X9.7617 Y40.0301
G01 X9.7577 Y40.0451
G01 X9.7561 Y40.0549
G01 X9.7550 Y40.0748
G01 X9.7572 Y40.0997
G01 X9.7582 Y40.1057
G01 X9.7598 Y40.1115
G01 X9.7677 Y40.1339
G01 X9.7946 Y40.1995
G01 X9.8200 Y40.2651
G01 X9.8425 Y40.3317
G01 X9.8640 Y40.3980
G01 X9.8992 Y40.5341
G01 X9.9129 Y40.6025
G01 X9.9256 Y40.6711
G01 X9.9354 Y40.7402
G01 X9.9432 Y40.8105
G01 X9.9481 Y40.8801
G01 X9.9520 Y40.9507
G01 X9.9530 Y41.0210
G01 X9.9520 Y41.0875
G01 X9.9491 Y41.1541
G01 X9.9442 Y41.2206
G01 X9.9374 Y41.2858
G01 X9.9276 Y41.3523
G01 X9.9168 Y41.4182
G01 X9.9041 Y41.4838
G01 X9.8895 Y41.5490
G01 X9.8719 Y41.6134
G01 X9.8532 Y41.6773
G01 X9.8328 Y41.7405
G01 X9.8094 Y41.8030
G01 X9.7848 Y41.8649
G01 X9.7584 Y41.9266
G01 X9.7301 Y41.9869
G01 X9.6997 Y42.0458
G01 X9.6684 Y42.1045
G01 X9.6343 Y42.1621
G01 X9.5989 Y42.2190
G01 X9.5628 Y42.2737
G01 X9.5237 Y42.3283
G01 X9.4837 Y42.3811
G01 X9.4415 Y42.4331
G01 X9.3987 Y42.4837
G01 X9.3527 Y42.5326
G01 X9.3066 Y42.5806
G01 X9.2586 Y42.6267
G01 X9.2097 Y42.6727
G01 X9.1591 Y42.7155
G01 X9.1071 Y42.7577
G01 X9.0543 Y42.7977
G01 X8.9997 Y42.8368
G01 X8.9450 Y42.8729
G01 X8.8881 Y42.9083
G01 X8.8305 Y42.9424
G01 X8.7718 Y42.9737
G01 X8.7129 Y43.0041
G01 X8.6526 Y43.0324
G01 X8.5909 Y43.0588
G01 X8.5290 Y43.0834
G01 X8.4665 Y43.1068
G01 X8.4033 Y43.1272
G01 X8.3394 Y43.1459
G01 X8.2750 Y43.1635
G01 X8.2098 Y43.1781
G01 X8.1442 Y43.1908
G01 X8.0783 Y43.2016
G01 X8.0118 Y43.2114
G01 X7.9466 Y43.2182
G01 X7.8801 Y43.2231
G01 X7.8135 Y43.2260
G01 X7.7470 Y43.2270
G01 X7.6795 Y43.2260
G01 X7.6129 Y43.2231
G01 X7.5464 Y43.2182
G01 X7.4812 Y43.2114
G01 X7.4147 Y43.2016
G01 X7.3488 Y43.1908
G01 X7.2832 Y43.1781
G01 X7.2180 Y43.1635
G01 X7.1536 Y43.1459
G01 X7.0897 Y43.1272
G01 X7.0265 Y43.1068
G01 X6.9640 Y43.0834
G01 X6.9021 Y43.0588
G01 X6.8404 Y43.0324
G01 X6.7801 Y43.0041
G01 X6.7212 Y42.9737
G01 X6.6625 Y42.9424
G01 X6.6049 Y42.9083
G01 X6.5480 Y42.8729
G01 X6.4933 Y42.8368
G01 X6.4387 Y42.7977
G01 X6.3859 Y42.7577
G01 X6.3339 Y42.7155
G01 X6.2833 Y42.6727
G01 X6.2344 Y42.6267
G01 X6.1864 Y42.5806
G01 X6.1403 Y42.5326
G01 X6.0943 Y42.4837
G01 X6.0515 Y42.4331
G01 X6.0093 Y42.3811
G01 X5.9693 Y42.3283
G01 X5.9302 Y42.2737
G01 X5.8941 Y42.2190
G01 X5.8587 Y42.1621
G01 X5.8246 Y42.1045
G01 X5.7933 Y42.0458
G01 X5.7629 Y41.9869
G01 X5.7346 Y41.9266
G01 X5.7082 Y41.8649
G01 X5.6836 Y41.8030
G01 X5.6602 Y41.7405
G01 X5.6398 Y41.6773
G01 X5.6211 Y41.6134
G01 X5.6035 Y41.5490
G01 X5.5889 Y41.4838
G01 X5.5762 Y41.4182
G01 X5.5654 Y41.3523
G01 X5.5556 Y41.2858
G01 X5.5488 Y41.2206
G01 X5.5439 Y41.1541
G01 X5.5410 Y41.0875
G01 X5.5400 Y41.0210
G01 X5.5410 Y40.9535
G01 X5.5439 Y40.8869
G01 X5.5488 Y40.8204
G01 X5.5556 Y40.7552
G01 X5.5654 Y40.6887
G01 X5.5762 Y40.6228
G01 X5.5889 Y40.5572
G01 X5.6035 Y40.4920
G01 X5.6211 Y40.4276
G01 X5.6398 Y40.3637
G01 X5.6602 Y40.3005
G01 X5.6836 Y40.2380
G01 X5.7082 Y40.1761
G01 X5.7346 Y40.1144
G01 X5.7629 Y40.0541
G01 X5.7933 Y39.9952
G01 X5.8246 Y39.9365
G01 X5.8587 Y39.8789
G01 X5.8941 Y39.8220
G01 X5.9302 Y39.7673
G01 X5.9693 Y39.7127
G01 X6.0093 Y39.6599
G01 X6.0515 Y39.6079
G01 X6.0943 Y39.5573
G01 X6.1403 Y39.5084
G01 X6.1864 Y39.4604
G01 X6.2344 Y39.4143
G01 X6.2833 Y39.3683
G01 X6.3339 Y39.3255
G01 X6.3859 Y39.2833
G01 X6.4387 Y39.2433
G01 X6.4933 Y39.2042
G01 X6.5480 Y39.1681
G01 X6.6049 Y39.1327
G01 X6.6625 Y39.0986
G01 X6.7212 Y39.0673
G01 X6.7801 Y39.0369
G01 X6.8404 Y39.0086
G01 X6.9021 Y38.9822
G01 X6.9640 Y38.9576
G01 X7.0265 Y38.9342
G01 X7.0897 Y38.9138
G01 X7.1536 Y38.8951
G01 X7.2180 Y38.8775
G01 X7.2832 Y38.8629
G01 X7.3488 Y38.8502
G01 X7.4147 Y38.8394
G01 X7.4812 Y38.8296
G01 X7.5464 Y38.8228
G01 X7.6129 Y38.8179
G01 X7.6795 Y38.8150
G01 X7.7470 Y38.8140
G01 X7.8163 Y38.8150
G01 X7.8869 Y38.8189
G01 X7.9565 Y38.8238
G01 X8.0268 Y38.8316
G01 X8.0959 Y38.8414
G01 X8.1645 Y38.8541
G01 X8.2329 Y38.8678
G01 X8.3690 Y38.9030
G01 X8.4353 Y38.9245
G01 X8.5019 Y38.9470
G01 X8.5675 Y38.9724
G01 X8.6331 Y38.9993
G01 X8.6555 Y39.0072
G01 X8.6613 Y39.0088
G01 X8.6673 Y39.0098
G01 X8.6883 Y39.0118
G01 X8.6961 Y39.0119
G01 X8.7170 Y39.0103
G01 X8.7369 Y39.0053
G01 X8.7426 Y39.0034
G01 X8.7576 Y38.9974
G01 X8.7652 Y38.9936
G01 X8.7825 Y38.9826
G01 X8.7955 Y38.9726
G01 X8.8004 Y38.9684
G01 X9.4325 Y38.3362
G01 X9.4906 Y38.2893
G01 X9.5213 Y38.2689
G01 X9.5524 Y38.2491
G01 X9.5841 Y38.2319
G01 X9.6523 Y38.2016
G01 X9.6876 Y38.1895
G01 X9.7233 Y38.1782
G01 X9.7582 Y38.1700
G01 X9.7946 Y38.1634
G01 X9.8311 Y38.1588
G01 X9.8685 Y38.1560
G01 X9.9066 Y38.1550
G01 X27.5220 Y38.1550
G01 X27.5403 Y38.1539
G01 X27.5475 Y38.1529
G01 X27.5615 Y38.1499
G01 X27.5696 Y38.1474
G01 X27.5846 Y38.1414
G01 X27.5912 Y38.1382
G01 X27.6065 Y38.1291
G01 X27.6230 Y38.1174
G01 X27.6294 Y38.1110
G01 X27.6703 Y38.0623
G01 X27.7038 Y38.0269
G01 X27.7389 Y37.9918
G01 X27.7743 Y37.9583
G01 X27.8107 Y37.9277
G01 X27.8491 Y37.8970
G01 X27.8881 Y37.8694
G01 X27.9299 Y37.8421
G01 X27.9711 Y37.8163
G01 X28.0141 Y37.7933
G01 X28.0578 Y37.7710
G01 X28.1018 Y37.7509
G01 X28.1627 Y37.7260
G01 X28.1672 Y37.7238
G01 X28.1715 Y37.7211
G01 X28.1845 Y37.7121
G01 X28.1896 Y37.7080
G01 X28.2006 Y37.6980
G01 X28.2054 Y37.6930
G01 X28.2154 Y37.6810
G01 X28.2184 Y37.6770
G01 X28.2210 Y37.6727
G01 X28.2280 Y37.6597
G01 X28.2360 Y37.6417
G01 X28.2383 Y37.6349
G01 X28.2423 Y37.6199
G01 X28.2439 Y37.6103
G01 X28.2449 Y37.5953
G01 X28.2449 Y37.5889
G01 X28.2439 Y37.5729
G01 X28.2423 Y37.5631
G01 X28.2383 Y37.5481
G01 X28.2360 Y37.5413
G01 X28.2280 Y37.5233
G01 X28.2210 Y37.5103
G01 X28.2184 Y37.5060
G01 X28.2154 Y37.5020
G01 X28.2054 Y37.4900
G01 X28.2006 Y37.4850
G01 X28.1896 Y37.4750
G01 X28.1845 Y37.4709
G01 X28.1715 Y37.4619
G01 X28.1672 Y37.4592
G01 X28.1627 Y37.4570
G01 X28.1018 Y37.4321
G01 X28.0578 Y37.4120
G01 X28.0141 Y37.3897
G01 X27.9711 Y37.3667
G01 X27.9299 Y37.3409
G01 X27.8881 Y37.3136
G01 X27.8491 Y37.2860
G01 X27.8107 Y37.2553
G01 X27.7743 Y37.2247
G01 X27.7389 Y37.1912
G01 X27.7038 Y37.1561
G01 X27.6703 Y37.1207
G01 X27.6294 Y37.0720
G01 X27.6230 Y37.0656
G01 X27.6065 Y37.0539
G01 X27.5912 Y37.0448
G01 X27.5846 Y37.0416
G01 X27.5696 Y37.0356
G01 X27.5615 Y37.0331
G01 X27.5475 Y37.0301
G01 X27.5403 Y37.0291
G01 X27.5220 Y37.0280
G01 X9.7530 Y37.0280
G01 X9.7347 Y37.0291
G01 X9.7275 Y37.0301
G01 X9.7135 Y37.0331
G01 X9.7043 Y37.0360
G01 X9.6903 Y37.0420
G01 X9.6692 Y37.0534
G01 X9.6524 Y37.0670
G01 X9.6380 Y37.0804
G01 X9.6236 Y37.0994
G01 X9.5871 Y37.1578
G01 X9.5492 Y37.2141
G01 X9.5093 Y37.2677
G01 X9.4669 Y37.3218
G01 X9.4240 Y37.3744
G01 X9.3781 Y37.4253
G01 X9.3319 Y37.4754
G01 X9.2842 Y37.5231
G01 X9.2343 Y37.5701
G01 X9.1834 Y37.6151
G01 X9.1308 Y37.6589
G01 X9.0769 Y37.7001
G01 X9.0229 Y37.7404
G01 X8.9664 Y37.7793
G01 X8.9097 Y37.8155
G01 X8.8510 Y37.8507
G01 X8.7914 Y37.8839
G01 X8.7306 Y37.9153
G01 X8.6701 Y37.9446
G01 X8.6077 Y37.9719
G01 X8.5437 Y37.9975
G01 X8.4801 Y38.0219
G01 X8.4158 Y38.0433
G01 X8.3513 Y38.0629
G01 X8.2858 Y38.0805
G01 X8.2196 Y38.0961
G01 X8.1530 Y38.1088
G01 X8.0851 Y38.1206
G01 X8.0179 Y38.1304
G01 X7.9503 Y38.1372
G01 X7.8828 Y38.1431
G01 X7.8146 Y38.1460
G01 X7.7470 Y38.1470
G01 X7.6795 Y38.1460
G01 X7.6129 Y38.1431
G01 X7.5464 Y38.1382
G01 X7.4812 Y38.1314
G01 X7.4147 Y38.1216
G01 X7.3488 Y38.1108
G01 X7.2832 Y38.0981
G01 X7.2180 Y38.0835
G01 X7.1536 Y38.0659
G01 X7.0897 Y38.0472
G01 X7.0265 Y38.0268
G01 X6.9640 Y38.0034
G01 X6.9021 Y37.9788
G01 X6.8404 Y37.9524
G01 X6.7801 Y37.9241
G01 X6.7212 Y37.8937
G01 X6.6625 Y37.8624
G01 X6.6049 Y37.8283
G01 X6.5480 Y37.7929
G01 X6.4933 Y37.7568
G01 X6.4387 Y37.7177
G01 X6.3859 Y37.6777
G01 X6.3339 Y37.6355
G01 X6.2833 Y37.5927
G01 X6.2344 Y37.5467
G01 X6.1864 Y37.5006
G01 X6.1403 Y37.4526
G01 X6.0943 Y37.4037
G01 X6.0515 Y37.3531
G01 X6.0093 Y37.3011
G01 X5.9693 Y37.2483
G01 X5.9302 Y37.1937
G01 X5.8941 Y37.1390
G01 X5.8587 Y37.0821
G01 X5.8246 Y37.0245
G01 X5.7933 Y36.9658
G01 X5.7629 Y36.9069
G01 X5.7346 Y36.8466
G01 X5.7082 Y36.7849
G01 X5.6836 Y36.7230
G01 X5.6602 Y36.6605
G01 X5.6398 Y36.5973
G01 X5.6211 Y36.5334
G01 X5.6035 Y36.4690
G01 X5.5889 Y36.4038
G01 X5.5762 Y36.3382
G01 X5.5654 Y36.2723
G01 X5.5556 Y36.2058
G01 X5.5488 Y36.1406
G01 X5.5439 Y36.0741
G01 X5.5410 Y36.0075
G01 X5.5400 Y35.9410
G01 X5.5410 Y35.8735
G01 X5.5439 Y35.8069
G01 X5.5488 Y35.7404
G01 X5.5556 Y35.6752
G01 X5.5654 Y35.6087
G01 X5.5762 Y35.5428
G01 X5.5889 Y35.4772
G01 X5.6035 Y35.4120
G01 X5.6211 Y35.3476
G01 X5.6398 Y35.2837
G01 X5.6602 Y35.2205
G01 X5.6836 Y35.1580
G01 X5.7082 Y35.0961
G01 X5.7346 Y35.0344
G01 X5.7629 Y34.9741
G01 X5.7933 Y34.9152
G01 X5.8246 Y34.8565
G01 X5.8587 Y34.7989
G01 X5.8941 Y34.7420
G01 X5.9302 Y34.6873
G01 X5.9693 Y34.6327
G01 X6.0093 Y34.5799
G01 X6.0515 Y34.5279
G01 X6.0943 Y34.4773
G01 X6.1403 Y34.4284
G01 X6.1864 Y34.3804
G01 X6.2344 Y34.3343
G01 X6.2833 Y34.2883
G01 X6.3339 Y34.2455
G01 X6.3859 Y34.2033
G01 X6.4387 Y34.1633
G01 X6.4933 Y34.1242
G01 X6.5480 Y34.0881
G01 X6.6049 Y34.0527
G01 X6.6625 Y34.0186
G01 X6.7212 Y33.9873
G01 X6.7801 Y33.9569
G01 X6.8404 Y33.9286
G01 X6.9021 Y33.9022
G01 X6.9640 Y33.8776
G01 X7.0265 Y33.8542
G01 X7.0897 Y33.8338
G01 X7.1536 Y33.8151
G01 X7.2180 Y33.7975
G01 X7.2832 Y33.7829
G01 X7.3488 Y33.7702
G01 X7.4147 Y33.7594
G01 X7.4812 Y33.7496
G01 X7.5464 Y33.7428
G01 X7.6129 Y33.7379
G01 X7.6795 Y33.7350
G01 X7.7470 Y33.7340
G01 X7.8135 Y33.7350
G01 X7.8811 Y33.7379
G01 X7.9472 Y33.7428
G01 X8.0138 Y33.7506
G01 X8.0803 Y33.7594
G01 X8.1458 Y33.7712
G01 X8.2115 Y33.7839
G01 X8.2780 Y33.7996
G01 X8.3428 Y33.8162
G01 X8.4071 Y33.8347
G01 X8.4705 Y33.8562
G01 X8.5331 Y33.8787
G01 X8.5957 Y33.9041
G01 X8.6576 Y33.9306
G01 X8.7181 Y33.9589
G01 X8.7776 Y33.9892
G01 X8.8362 Y34.0214
G01 X8.8938 Y34.0556
G01 X8.9507 Y34.0919
G01 X9.0064 Y34.1290
G01 X9.0601 Y34.1681
G01 X9.1141 Y34.2093
G01 X9.1661 Y34.2515
G01 X9.2167 Y34.2943
G01 X9.2654 Y34.3401
G01 X9.3135 Y34.3872
G01 X9.3596 Y34.4353
G01 X9.4055 Y34.4851
G01 X9.4483 Y34.5357
G01 X9.4904 Y34.5885
G01 X9.5304 Y34.6422
G01 X9.5687 Y34.6972
G01 X9.6061 Y34.7533
G01 X9.6421 Y34.8098
G01 X9.6752 Y34.8681
G01 X9.7066 Y34.9269
G01 X9.7368 Y34.9875
G01 X9.7642 Y35.0481
G01 X9.7907 Y35.1099
G01 X9.8151 Y35.1724
G01 X9.8376 Y35.2360
G01 X9.8582 Y35.2996
G01 X9.8768 Y35.3642
G01 X9.8933 Y35.4284
G01 X9.9071 Y35.4942
G01 X9.9117 Y35.5119
G01 X9.9132 Y35.5167
G01 X9.9153 Y35.5214
G01 X9.9223 Y35.5354
G01 X9.9270 Y35.5430
G01 X9.9360 Y35.5550
G01 X9.9476 Y35.5690
G01 X9.9540 Y35.5754
G01 X9.9700 Y35.5884
G01 X9.9886 Y35.5987
G01 X10.0026 Y35.6057
G01 X10.0113 Y35.6091
G01 X10.0318 Y35.6131
G01 X10.0377 Y35.6139
G01 X10.0527 Y35.6149
G01 X27.5220 Y35.6150
G01 X27.5403 Y35.6139
G01 X27.5475 Y35.6129
G01 X27.5615 Y35.6099
G01 X27.5696 Y35.6074
G01 X27.5846 Y35.6014
G01 X27.5912 Y35.5982
G01 X27.6065 Y35.5891
G01 X27.6230 Y35.5774
G01 X27.6294 Y35.5710
G01 X27.6703 Y35.5223
G01 X27.7038 Y35.4869
G01 X27.7389 Y35.4518
G01 X27.7743 Y35.4183
G01 X27.8107 Y35.3877
G01 X27.8491 Y35.3570
G01 X27.8881 Y35.3294
G01 X27.9299 Y35.3021
G01 X27.9711 Y35.2763
G01 X28.0141 Y35.2533
G01 X28.0578 Y35.2310
G01 X28.1018 Y35.2109
G01 X28.1627 Y35.1860
G01 X28.1672 Y35.1838
G01 X28.1715 Y35.1811
G01 X28.1845 Y35.1721
G01 X28.1896 Y35.1680
G01 X28.2006 Y35.1580
G01 X28.2054 Y35.1530
G01 X28.2154 Y35.1410
G01 X28.2184 Y35.1370
G01 X28.2210 Y35.1327
G01 X28.2280 Y35.1197
G01 X28.2360 Y35.1017
G01 X28.2383 Y35.0949
G01 X28.2423 Y35.0799
G01 X28.2439 Y35.0703
G01 X28.2449 Y35.0553
G01 X28.2449 Y35.0489
G01 X28.2439 Y35.0329
G01 X28.2423 Y35.0231
G01 X28.2383 Y35.0081
G01 X28.2360 Y35.0013
G01 X28.2280 Y34.9833
G01 X28.2210 Y34.9703
G01 X28.2184 Y34.9660
G01 X28.2154 Y34.9620
G01 X28.2054 Y34.9500
G01 X28.2006 Y34.9450
G01 X28.1896 Y34.9350
G01 X28.1845 Y34.9309
G01 X28.1715 Y34.9219
G01 X28.1672 Y34.9192
G01 X28.1627 Y34.9170
G01 X28.1018 Y34.8921
G01 X28.0578 Y34.8720
G01 X28.0141 Y34.8497
G01 X27.9711 Y34.8267
G01 X27.9299 Y34.8009
G01 X27.8881 Y34.7736
G01 X27.8491 Y34.7460
G01 X27.8107 Y34.7153
G01 X27.7743 Y34.6847
G01 X27.7389 Y34.6512
G01 X27.7038 Y34.6161
G01 X27.6703 Y34.5807
G01 X27.6294 Y34.5320
G01 X27.6230 Y34.5256
G01 X27.6065 Y34.5139
G01 X27.5912 Y34.5048
G01 X27.5846 Y34.5016
G01 X27.5696 Y34.4956
G01 X27.5615 Y34.4931
G01 X27.5475 Y34.4901
G01 X27.5403 Y34.4891
G01 X27.5220 Y34.4880
G01 X10.6686 Y34.4880
G01 X10.6305 Y34.4870
G01 X10.5931 Y34.4842
G01 X10.5566 Y34.4796
G01 X10.5202 Y34.4730
G01 X10.4853 Y34.4648
G01 X10.4496 Y34.4535
G01 X10.4143 Y34.4414
G01 X10.3461 Y34.4111
G01 X10.3144 Y34.3939
G01 X10.2833 Y34.3741
G01 X10.2526 Y34.3537
G01 X10.1945 Y34.3068
G01 X8.8004 Y32.9126
G01 X8.7955 Y32.9084
G01 X8.7825 Y32.8984
G01 X8.7782 Y32.8954
G01 X8.7615 Y32.8853
G01 X8.7426 Y32.8776
G01 X8.7369 Y32.8757
G01 X8.7170 Y32.8707
G01 X8.6922 Y32.8690
G01 X8.6673 Y32.8712
G01 X8.6613 Y32.8722
G01 X8.6555 Y32.8738
G01 X8.6331 Y32.8817
G01 X8.5675 Y32.9086
G01 X8.5019 Y32.9340
G01 X8.4353 Y32.9565
G01 X8.3690 Y32.9780
G01 X8.2329 Y33.0132
G01 X8.1645 Y33.0269
G01 X8.0959 Y33.0396
G01 X8.0268 Y33.0494
G01 X7.9565 Y33.0572
G01 X7.8869 Y33.0621
G01 X7.8163 Y33.0660
G01 X7.7470 Y33.0670
G01 X7.6795 Y33.0660
G01 X7.6129 Y33.0631
G01 X7.5464 Y33.0582
G01 X7.4812 Y33.0514
G01 X7.4147 Y33.0416
G01 X7.3488 Y33.0308
G01 X7.2832 Y33.0181
G01 X7.2180 Y33.0035
G01 X7.1536 Y32.9859
G01 X7.0897 Y32.9672
G01 X7.0265 Y32.9468
G01 X6.9640 Y32.9234
G01 X6.9021 Y32.8988
G01 X6.8404 Y32.8724
G01 X6.7801 Y32.8441
G01 X6.7212 Y32.8137
G01 X6.6625 Y32.7824
G01 X6.6049 Y32.7483
G01 X6.5480 Y32.7129
G01 X6.4933 Y32.6768
G01 X6.4387 Y32.6377
G01 X6.3859 Y32.5977
G01 X6.3339 Y32.5555
G01 X6.2833 Y32.5127
G01 X6.2344 Y32.4667
G01 X6.1864 Y32.4206
G01 X6.1403 Y32.3726
G01 X6.0943 Y32.3237
G01 X6.0515 Y32.2731
G01 X6.0093 Y32.2211
G01 X5.9693 Y32.1683
G01 X5.9302 Y32.1137
G01 X5.8941 Y32.0590
G01 X5.8587 Y32.0021
G01 X5.8246 Y31.9445
G01 X5.7933 Y31.8858
G01 X5.7629 Y31.8269
G01 X5.7346 Y31.7666
G01 X5.7082 Y31.7049
G01 X5.6836 Y31.6430
G01 X5.6602 Y31.5805
G01 X5.6398 Y31.5173
G01 X5.6211 Y31.4534
G01 X5.6035 Y31.3890
G01 X5.5889 Y31.3238
G01 X5.5762 Y31.2582
G01 X5.5654 Y31.1923
G01 X5.5556 Y31.1258
G01 X5.5488 Y31.0606
G01 X5.5439 Y30.9941
G01 X5.5410 Y30.9275
G01 X5.5400 Y30.8610
G01 X5.5410 Y30.7935
G01 X5.5439 Y30.7269
G01 X5.5488 Y30.6604
G01 X5.5556 Y30.5952
G01 X5.5654 Y30.5287
G01 X5.5762 Y30.4628
G01 X5.5889 Y30.3972
G01 X5.6035 Y30.3320
G01 X5.6211 Y30.2676
G01 X5.6398 Y30.2037
G01 X5.6602 Y30.1405
G01 X5.6836 Y30.0780
G01 X5.7082 Y30.0161
G01 X5.7346 Y29.9544
G01 X5.7629 Y29.8941
G01 X5.7933 Y29.8352
G01 X5.8246 Y29.7765
G01 X5.8587 Y29.7189
G01 X5.8941 Y29.6620
G01 X5.9302 Y29.6073
G01 X5.9693 Y29.5527
G01 X6.0093 Y29.4999
G01 X6.0515 Y29.4479
G01 X6.0943 Y29.3973
G01 X6.1403 Y29.3484
G01 X6.1864 Y29.3004
G01 X6.2344 Y29.2543
G01 X6.2833 Y29.2083
G01 X6.3339 Y29.1655
G01 X6.3859 Y29.1233
G01 X6.4387 Y29.0833
G01 X6.4933 Y29.0442
G01 X6.5480 Y29.0081
G01 X6.6049 Y28.9727
G01 X6.6625 Y28.9386
G01 X6.7212 Y28.9073
G01 X6.7801 Y28.8769
G01 X6.8404 Y28.8486
G01 X6.9021 Y28.8222
G01 X6.9640 Y28.7976
G01 X7.0265 Y28.7742
G01 X7.0897 Y28.7538
G01 X7.1536 Y28.7351
G01 X7.2180 Y28.7175
G01 X7.2832 Y28.7029
G01 X7.3488 Y28.6902
G01 X7.4147 Y28.6794
G01 X7.4812 Y28.6696
G01 X7.5464 Y28.6628
G01 X7.6129 Y28.6579
G01 X7.6795 Y28.6550
G01 X7.7470 Y28.6540
G01 X7.8135 Y28.6550
G01 X7.8801 Y28.6579
G01 X7.9466 Y28.6628
G01 X8.0118 Y28.6696
G01 X8.0783 Y28.6794
G01 X8.1442 Y28.6902
G01 X8.2098 Y28.7029
G01 X8.2750 Y28.7175
G01 X8.3394 Y28.7351
G01 X8.4033 Y28.7538
G01 X8.4665 Y28.7742
G01 X8.5290 Y28.7976
G01 X8.5909 Y28.8222
G01 X8.6526 Y28.8486
G01 X8.7129 Y28.8769
G01 X8.7718 Y28.9073
G01 X8.8305 Y28.9386
G01 X8.8881 Y28.9727
G01 X8.9450 Y29.0081
G01 X8.9997 Y29.0442
G01 X9.0543 Y29.0833
G01 X9.1071 Y29.1233
G01 X9.1591 Y29.1655
G01 X9.2097 Y29.2083
G01 X9.2586 Y29.2543
G01 X9.3066 Y29.3004
G01 X9.3527 Y29.3484
G01 X9.3987 Y29.3973
G01 X9.4415 Y29.4479
G01 X9.4837 Y29.4999
G01 X9.5237 Y29.5527
G01 X9.5628 Y29.6073
G01 X9.5989 Y29.6620
G01 X9.6343 Y29.7189
G01 X9.6684 Y29.7765
G01 X9.6997 Y29.8352
G01 X9.7301 Y29.8941
G01 X9.7584 Y29.9544
G01 X9.7848 Y30.0161
G01 X9.8094 Y30.0780
G01 X9.8328 Y30.1405
G01 X9.8532 Y30.2037
G01 X9.8719 Y30.2676
G01 X9.8895 Y30.3320
G01 X9.9041 Y30.3972
G01 X9.9168 Y30.4628
G01 X9.9276 Y30.5287
G01 X9.9374 Y30.5952
G01 X9.9442 Y30.6604
G01 X9.9491 Y30.7269
G01 X9.9520 Y30.7935
G01 X9.9530 Y30.8610
G01 X9.9520 Y30.9303
G01 X9.9481 Y31.0009
G01 X9.9432 Y31.0705
G01 X9.9354 Y31.1408
G01 X9.9256 Y31.2099
G01 X9.9129 Y31.2785
G01 X9.8992 Y31.3469
G01 X9.8640 Y31.4830
G01 X9.8425 Y31.5493
G01 X9.8200 Y31.6159
G01 X9.7946 Y31.6815
G01 X9.7677 Y31.7471
G01 X9.7598 Y31.7695
G01 X9.7582 Y31.7753
G01 X9.7572 Y31.7813
G01 X9.7550 Y31.8062
G01 X9.7567 Y31.8310
G01 X9.7617 Y31.8509
G01 X9.7636 Y31.8566
G01 X9.7713 Y31.8755
G01 X9.7814 Y31.8922
G01 X9.7844 Y31.8965
G01 X9.7944 Y31.9095
G01 X9.7987 Y31.9144
G01 X10.9157 Y33.0304
G01 X10.9335 Y33.0464
G01 X10.9522 Y33.0574
G01 X10.9584 Y33.0604
G01 X10.9734 Y33.0664
G01 X10.9791 Y33.0683
G01 X10.9990 Y33.0733
G01 X11.0230 Y33.0750
G01 X27.5220 Y33.0750
G01 X27.5403 Y33.0739
G01 X27.5475 Y33.0729
G01 X27.5615 Y33.0699
G01 X27.5696 Y33.0674
G01 X27.5846 Y33.0614
G01 X27.5912 Y33.0582
G01 X27.6065 Y33.0491
G01 X27.6230 Y33.0374
G01 X27.6294 Y33.0310
G01 X27.6703 Y32.9823
G01 X27.7038 Y32.9469
G01 X27.7389 Y32.9118
G01 X27.7743 Y32.8783
G01 X27.8107 Y32.8477
G01 X27.8491 Y32.8170
G01 X27.8881 Y32.7894
G01 X27.9299 Y32.7621
G01 X27.9711 Y32.7363
G01 X28.0141 Y32.7133
G01 X28.0578 Y32.6910
G01 X28.1018 Y32.6709
G01 X28.1627 Y32.6460
G01 X28.1672 Y32.6438
G01 X28.1715 Y32.6411
G01 X28.1845 Y32.6321
G01 X28.1896 Y32.6280
G01 X28.2006 Y32.6180
G01 X28.2054 Y32.6130
G01 X28.2154 Y32.6010
G01 X28.2184 Y32.5970
G01 X28.2210 Y32.5927
G01 X28.2280 Y32.5797
G01 X28.2360 Y32.5617
G01 X28.2383 Y32.5549
G01 X28.2423 Y32.5399
G01 X28.2439 Y32.5303
G01 X28.2449 Y32.5153
G01 X28.2449 Y32.5089
G01 X28.2439 Y32.4929
G01 X28.2423 Y32.4831
G01 X28.2383 Y32.4681
G01 X28.2360 Y32.4613
G01 X28.2280 Y32.4433
G01 X28.2210 Y32.4303
G01 X28.2184 Y32.4260
G01 X28.2154 Y32.4220
G01 X28.2054 Y32.4100
G01 X28.2006 Y32.4050
G01 X28.1896 Y32.3950
G01 X28.1845 Y32.3909
G01 X28.1715 Y32.3819
G01 X28.1672 Y32.3792
G01 X28.1627 Y32.3770
G01 X28.1018 Y32.3521
G01 X28.0578 Y32.3320
G01 X28.0141 Y32.3097
G01 X27.9711 Y32.2867
G01 X27.9299 Y32.2609
G01 X27.8881 Y32.2336
G01 X27.8491 Y32.2060
G01 X27.8107 Y32.1753
G01 X27.7743 Y32.1447
G01 X27.7389 Y32.1112
G01 X27.7038 Y32.0761
G01 X27.6703 Y32.0407
G01 X27.6294 Y31.9920
G01 X27.6230 Y31.9856
G01 X27.6065 Y31.9739
G01 X27.5912 Y31.9648
G01 X27.5846 Y31.9616
G01 X27.5696 Y31.9556
G01 X27.5615 Y31.9531
G01 X27.5475 Y31.9501
G01 X27.5403 Y31.9491
G01 X27.5253 Y31.9481
G01 X13.2086 Y31.9480
G01 X13.1705 Y31.9470
G01 X13.1331 Y31.9442
G01 X13.0966 Y31.9396
G01 X13.0602 Y31.9330
G01 X13.0253 Y31.9248
G01 X12.9896 Y31.9135
G01 X12.9543 Y31.9014
G01 X12.8861 Y31.8711
G01 X12.8544 Y31.8539
G01 X12.8233 Y31.8341
G01 X12.7926 Y31.8137
G01 X12.7345 Y31.7668
G01 X8.8004 Y27.8326
G01 X8.7955 Y27.8284
G01 X8.7782 Y27.8154
G01 X8.7652 Y27.8074
G01 X8.7576 Y27.8036
G01 X8.7426 Y27.7976
G01 X8.7369 Y27.7957
G01 X8.7170 Y27.7907
G01 X8.6922 Y27.7890
G01 X8.6673 Y27.7912
G01 X8.6613 Y27.7922
G01 X8.6555 Y27.7938
G01 X8.6331 Y27.8017
G01 X8.5675 Y27.8286
G01 X8.5019 Y27.8540
G01 X8.4353 Y27.8765
G01 X8.3690 Y27.8980
G01 X8.2329 Y27.9332
G01 X8.1645 Y27.9469
G01 X8.0959 Y27.9596
G01 X8.0268 Y27.9694
G01 X7.9565 Y27.9772
G01 X7.8869 Y27.9821
G01 X7.8163 Y27.9860
G01 X7.7470 Y27.9870
G01 X7.6795 Y27.9860
G01 X7.6129 Y27.9831
G01 X7.5464 Y27.9782
G01 X7.4812 Y27.9714
G01 X7.4147 Y27.9616
G01 X7.3488 Y27.9508
G01 X7.2832 Y27.9381
G01 X7.2180 Y27.9235
G01 X7.1536 Y27.9059
G01 X7.0897 Y27.8872
G01 X7.0265 Y27.8668
G01 X6.9640 Y27.8434
G01 X6.9021 Y27.8188
G01 X6.8404 Y27.7924
G01 X6.7801 Y27.7641
G01 X6.7212 Y27.7337
G01 X6.6625 Y27.7024
G01 X6.6049 Y27.6683
G01 X6.5480 Y27.6329
G01 X6.4933 Y27.5968
G01 X6.4387 Y27.5577
G01 X6.3859 Y27.5177
G01 X6.3339 Y27.4755
G01 X6.2833 Y27.4327
G01 X6.2344 Y27.3867
G01 X6.1864 Y27.3406
G01 X6.1403 Y27.2926
G01 X6.0943 Y27.2437
G01 X6.0515 Y27.1931
G01 X6.0093 Y27.1411
G01 X5.9693 Y27.0883
G01 X5.9302 Y27.0337
G01 X5.8941 Y26.9790
G01 X5.8587 Y26.9221
G01 X5.8246 Y26.8645
G01 X5.7933 Y26.8058
G01 X5.7629 Y26.7469
G01 X5.7346 Y26.6866
G01 X5.7082 Y26.6249
G01 X5.6836 Y26.5630
G01 X5.6602 Y26.5005
G01 X5.6398 Y26.4373
G01 X5.6211 Y26.3734
G01 X5.6035 Y26.3090
G01 X5.5889 Y26.2438
G01 X5.5762 Y26.1782
G01 X5.5654 Y26.1123
G01 X5.5556 Y26.0458
G01 X5.5488 Y25.9806
G01 X5.5439 Y25.9141
G01 X5.5410 Y25.8475
G01 X5.5400 Y25.7810
G01 X5.5410 Y25.7135
G01 X5.5439 Y25.6469
G01 X5.5488 Y25.5804
G01 X5.5556 Y25.5152
G01 X5.5654 Y25.4487
G01 X5.5762 Y25.3828
G01 X5.5889 Y25.3172
G01 X5.6035 Y25.2520
G01 X5.6211 Y25.1876
G01 X5.6398 Y25.1237
G01 X5.6602 Y25.0605
G01 X5.6836 Y24.9980
G01 X5.7082 Y24.9361
G01 X5.7346 Y24.8744
G01 X5.7629 Y24.8141
G01 X5.7933 Y24.7552
G01 X5.8246 Y24.6965
G01 X5.8587 Y24.6389
G01 X5.8941 Y24.5820
G01 X5.9302 Y24.5273
G01 X5.9693 Y24.4727
G01 X6.0093 Y24.4199
G01 X6.0515 Y24.3679
G01 X6.0943 Y24.3173
G01 X6.1403 Y24.2684
G01 X6.1864 Y24.2204
G01 X6.2344 Y24.1743
G01 X6.2833 Y24.1283
G01 X6.3339 Y24.0855
G01 X6.3859 Y24.0433
G01 X6.4387 Y24.0033
G01 X6.4933 Y23.9642
G01 X6.5480 Y23.9281
G01 X6.6049 Y23.8927
G01 X6.6625 Y23.8586
G01 X6.7212 Y23.8273
G01 X6.7801 Y23.7969
G01 X6.8404 Y23.7686
G01 X6.9021 Y23.7422
G01 X6.9640 Y23.7176
G01 X7.0265 Y23.6942
G01 X7.0897 Y23.6738
G01 X7.1536 Y23.6551
G01 X7.2180 Y23.6375
G01 X7.2832 Y23.6229
G01 X7.3488 Y23.6102
G01 X7.4147 Y23.5994
G01 X7.4812 Y23.5896
G01 X7.5464 Y23.5828
G01 X7.6129 Y23.5779
G01 X7.6795 Y23.5750
G01 X7.7470 Y23.5740
G01 X7.8135 Y23.5750
G01 X7.8801 Y23.5779
G01 X7.9466 Y23.5828
G01 X8.0118 Y23.5896
G01 X8.0783 Y23.5994
G01 X8.1442 Y23.6102
G01 X8.2098 Y23.6229
G01 X8.2750 Y23.6375
G01 X8.3394 Y23.6551
G01 X8.4033 Y23.6738
G01 X8.4665 Y23.6942
G01 X8.5290 Y23.7176
G01 X8.5909 Y23.7422
G01 X8.6526 Y23.7686
G01 X8.7129 Y23.7969
G01 X8.7718 Y23.8273
G01 X8.8305 Y23.8586
G01 X8.8881 Y23.8927
G01 X8.9450 Y23.9281
G01 X8.9997 Y23.9642
G01 X9.0543 Y24.0033
G01 X9.1071 Y24.0433
G01 X9.1591 Y24.0855
G01 X9.2097 Y24.1283
G01 X9.2586 Y24.1743
G01 X9.3066 Y24.2204
G01 X9.3527 Y24.2684
G01 X9.3987 Y24.3173
G01 X9.4415 Y24.3679
G01 X9.4837 Y24.4199
G01 X9.5237 Y24.4727
G01 X9.5628 Y24.5273
G01 X9.5989 Y24.5820
G01 X9.6343 Y24.6389
G01 X9.6684 Y24.6965
G01 X9.6997 Y24.7552
G01 X9.7301 Y24.8141
G01 X9.7584 Y24.8744
G01 X9.7848 Y24.9361
G01 X9.8094 Y24.9980
G01 X9.8328 Y25.0605
G01 X9.8532 Y25.1237
G01 X9.8719 Y25.1876
G01 X9.8895 Y25.2520
G01 X9.9041 Y25.3172
G01 X9.9168 Y25.3828
G01 X9.9276 Y25.4487
G01 X9.9374 Y25.5152
G01 X9.9442 Y25.5804
G01 X9.9491 Y25.6469
G01 X9.9520 Y25.7135
G01 X9.9530 Y25.7810
G01 X9.9520 Y25.8503
G01 X9.9481 Y25.9209
G01 X9.9432 Y25.9905
G01 X9.9354 Y26.0608
G01 X9.9256 Y26.1299
G01 X9.9129 Y26.1985
G01 X9.8992 Y26.2669
G01 X9.8640 Y26.4030
G01 X9.8425 Y26.4693
G01 X9.8200 Y26.5359
G01 X9.7946 Y26.6015
G01 X9.7677 Y26.6671
G01 X9.7598 Y26.6895
G01 X9.7582 Y26.6953
G01 X9.7572 Y26.7013
G01 X9.7550 Y26.7262
G01 X9.7567 Y26.7510
G01 X9.7617 Y26.7709
G01 X9.7636 Y26.7766
G01 X9.7696 Y26.7916
G01 X9.7734 Y26.7992
G01 X9.7814 Y26.8122
G01 X9.7944 Y26.8295
G01 X9.7986 Y26.8344
G01 X13.4556 Y30.4904
G01 X13.4735 Y30.5064
G01 X13.4922 Y30.5174
G01 X13.4984 Y30.5204
G01 X13.5134 Y30.5264
G01 X13.5191 Y30.5283
G01 X13.5341 Y30.5323
G01 X13.5439 Y30.5339
G01 X13.5630 Y30.5350
G01 X27.5253 Y30.5349
G01 X27.5403 Y30.5339
G01 X27.5475 Y30.5329
G01 X27.5615 Y30.5299
G01 X27.5696 Y30.5274
G01 X27.5846 Y30.5214
G01 X27.5912 Y30.5182
G01 X27.6065 Y30.5091
G01 X27.6230 Y30.4974
G01 X27.6294 Y30.4910
G01 X27.6703 Y30.4423
G01 X27.7038 Y30.4069
G01 X27.7389 Y30.3718
G01 X27.7743 Y30.3383
G01 X27.8107 Y30.3077
G01 X27.8491 Y30.2770
G01 X27.8881 Y30.2494
G01 X27.9299 Y30.2221
G01 X27.9711 Y30.1963
G01 X28.0141 Y30.1733
G01 X28.0578 Y30.1510
G01 X28.1018 Y30.1309
G01 X28.1627 Y30.1060
G01 X28.1672 Y30.1038
G01 X28.1715 Y30.1011
G01 X28.1845 Y30.0921
G01 X28.1896 Y30.0880
G01 X28.2006 Y30.0780
G01 X28.2054 Y30.0730
G01 X28.2154 Y30.0610
G01 X28.2184 Y30.0570
G01 X28.2210 Y30.0527
G01 X28.2280 Y30.0397
G01 X28.2360 Y30.0217
G01 X28.2383 Y30.0149
G01 X28.2423 Y29.9999
G01 X28.2439 Y29.9903
G01 X28.2449 Y29.9753
G01 X28.2449 Y29.9689
G01 X28.2439 Y29.9529
G01 X28.2423 Y29.9431
G01 X28.2383 Y29.9281
G01 X28.2360 Y29.9213
G01 X28.2280 Y29.9033
G01 X28.2210 Y29.8903
G01 X28.2184 Y29.8860
G01 X28.2154 Y29.8820
G01 X28.2054 Y29.8700
G01 X28.2006 Y29.8650
G01 X28.1896 Y29.8550
G01 X28.1845 Y29.8509
G01 X28.1715 Y29.8419
G01 X28.1672 Y29.8392
G01 X28.1627 Y29.8370
G01 X28.1018 Y29.8121
G01 X28.0578 Y29.7920
G01 X28.0141 Y29.7697
G01 X27.9711 Y29.7467
G01 X27.9299 Y29.7209
G01 X27.8881 Y29.6936
G01 X27.8491 Y29.6660
G01 X27.8107 Y29.6353
G01 X27.7743 Y29.6047
G01 X27.7389 Y29.5712
G01 X27.7038 Y29.5361
G01 X27.6703 Y29.5007
G01 X27.6294 Y29.4520
G01 X27.6230 Y29.4456
G01 X27.6065 Y29.4339
G01 X27.5912 Y29.4248
G01 X27.5846 Y29.4216
G01 X27.5696 Y29.4156
G01 X27.5615 Y29.4131
G01 X27.5475 Y29.4101
G01 X27.5403 Y29.4091
G01 X27.5253 Y29.4081
G01 X15.7486 Y29.4080
G01 X15.7105 Y29.4070
G01 X15.6731 Y29.4042
G01 X15.6366 Y29.3996
G01 X15.6002 Y29.3930
G01 X15.5653 Y29.3848
G01 X15.5296 Y29.3735
G01 X15.4943 Y29.3614
G01 X15.4261 Y29.3311
G01 X15.3944 Y29.3139
G01 X15.3633 Y29.2941
G01 X15.3326 Y29.2737
G01 X15.2745 Y29.2268
G01 X8.8004 Y22.7526
G01 X8.7955 Y22.7484
G01 X8.7825 Y22.7384
G01 X8.7652 Y22.7274
G01 X8.7576 Y22.7236
G01 X8.7426 Y22.7176
G01 X8.7369 Y22.7157
G01 X8.7219 Y22.7117
G01 X8.7121 Y22.7101
G01 X8.6922 Y22.7090
G01 X8.6673 Y22.7112
G01 X8.6613 Y22.7122
G01 X8.6555 Y22.7138
G01 X8.6331 Y22.7217
G01 X8.5675 Y22.7486
G01 X8.5019 Y22.7740
G01 X8.4353 Y22.7965
G01 X8.3690 Y22.8180
G01 X8.2329 Y22.8532
G01 X8.1645 Y22.8669
G01 X8.0959 Y22.8796
G01 X8.0268 Y22.8894
G01 X7.9565 Y22.8972
G01 X7.8869 Y22.9021
G01 X7.8163 Y22.9060
G01 X7.7470 Y22.9070
G01 X7.6795 Y22.9060
G01 X7.6129 Y22.9031
G01 X7.5464 Y22.8982
G01 X7.4812 Y22.8914
G01 X7.4147 Y22.8816
G01 X7.3488 Y22.8708
G01 X7.2832 Y22.8581
G01 X7.2180 Y22.8435
G01 X7.1536 Y22.8259
G01 X7.0897 Y22.8072
G01 X7.0265 Y22.7868
G01 X6.9640 Y22.7634
G01 X6.9021 Y22.7388
G01 X6.8404 Y22.7124
G01 X6.7801 Y22.6841
G01 X6.7212 Y22.6537
G01 X6.6625 Y22.6224
G01 X6.6049 Y22.5883
G01 X6.5480 Y22.5529
G01 X6.4933 Y22.5168
G01 X6.4387 Y22.4777
G01 X6.3859 Y22.4377
G01 X6.3339 Y22.3955
G01 X6.2833 Y22.3527
G01 X6.2344 Y22.3067
G01 X6.1864 Y22.2606
G01 X6.1403 Y22.2126
G01 X6.0943 Y22.1637
G01 X6.0515 Y22.1131
G01 X6.0093 Y22.0611
G01 X5.9693 Y22.0083
G01 X5.9302 Y21.9537
G01 X5.8941 Y21.8990
G01 X5.8587 Y21.8421
G01 X5.8246 Y21.7845
G01 X5.7933 Y21.7258
G01 X5.7629 Y21.6669
G01 X5.7346 Y21.6066
G01 X5.7082 Y21.5449
G01 X5.6836 Y21.4830
G01 X5.6602 Y21.4205
G01 X5.6398 Y21.3573
G01 X5.6211 Y21.2934
G01 X5.6035 Y21.2290
G01 X5.5889 Y21.1638
G01 X5.5762 Y21.0982
G01 X5.5654 Y21.0323
G01 X5.5556 Y20.9658
G01 X5.5488 Y20.9006
G01 X5.5439 Y20.8341
G01 X5.5410 Y20.7675
G01 X5.5400 Y20.7010
G01 X5.5410 Y20.6335
G01 X5.5439 Y20.5669
G01 X5.5488 Y20.5004
G01 X5.5556 Y20.4352
G01 X5.5654 Y20.3687
G01 X5.5762 Y20.3028
G01 X5.5889 Y20.2372
G01 X5.6035 Y20.1720
G01 X5.6211 Y20.1076
G01 X5.6398 Y20.0437
G01 X5.6602 Y19.9805
G01 X5.6836 Y19.9180
G01 X5.7082 Y19.8561
G01 X5.7346 Y19.7944
G01 X5.7629 Y19.7341
G01 X5.7933 Y19.6752
G01 X5.8246 Y19.6165
G01 X5.8587 Y19.5589
G01 X5.8941 Y19.5020
G01 X5.9302 Y19.4473
G01 X5.9693 Y19.3927
G01 X6.0093 Y19.3399
G01 X6.0515 Y19.2879
G01 X6.0943 Y19.2373
G01 X6.1403 Y19.1884
G01 X6.1864 Y19.1404
G01 X6.2344 Y19.0943
G01 X6.2833 Y19.0483
G01 X6.3339 Y19.0055
G01 X6.3859 Y18.9633
G01 X6.4387 Y18.9233
G01 X6.4933 Y18.8842
G01 X6.5480 Y18.8481
G01 X6.6049 Y18.8127
G01 X6.6625 Y18.7786
G01 X6.7212 Y18.7473
G01 X6.7801 Y18.7169
G01 X6.8404 Y18.6886
G01 X6.9021 Y18.6622
G01 X6.9640 Y18.6376
G01 X7.0265 Y18.6142
G01 X7.0897 Y18.5938
G01 X7.1536 Y18.5751
G01 X7.2180 Y18.5575
G01 X7.2832 Y18.5429
G01 X7.3488 Y18.5302
G01 X7.4147 Y18.5194
G01 X7.4812 Y18.5096
G01 X7.5464 Y18.5028
G01 X7.6129 Y18.4979
G01 X7.6795 Y18.4950
G01 X7.7470 Y18.4940
G01 X7.8135 Y18.4950
G01 X7.8801 Y18.4979
G01 X7.9466 Y18.5028
G01 X8.0118 Y18.5096
G01 X8.0783 Y18.5194
G01 X8.1442 Y18.5302
G01 X8.2098 Y18.5429
G01 X8.2750 Y18.5575
G01 X8.3394 Y18.5751
G01 X8.4033 Y18.5938
G01 X8.4665 Y18.6142
G01 X8.5290 Y18.6376
G01 X8.5909 Y18.6622
G01 X8.6526 Y18.6886
G01 X8.7129 Y18.7169
G01 X8.7718 Y18.7473
G01 X8.8305 Y18.7786
G01 X8.8881 Y18.8127
G01 X8.9450 Y18.8481
G01 X8.9997 Y18.8842
G01 X9.0543 Y18.9233
G01 X9.1071 Y18.9633
G01 X9.1591 Y19.0055
G01 X9.2097 Y19.0483
G01 X9.2586 Y19.0943
G01 X9.3066 Y19.1404
G01 X9.3527 Y19.1884
G01 X9.3987 Y19.2373
G01 X9.4415 Y19.2879
G01 X9.4837 Y19.3399
G01 X9.5237 Y19.3927
G01 X9.5628 Y19.4473
G01 X9.5989 Y19.5020
G01 X9.6343 Y19.5589
G01 X9.6684 Y19.6165
G01 X9.6997 Y19.6752
G01 X9.7301 Y19.7341
G01 X9.7584 Y19.7944
G01 X9.7848 Y19.8561
G01 X9.8094 Y19.9180
G01 X9.8328 Y19.9805
G01 X9.8532 Y20.0437
G01 X9.8719 Y20.1076
G01 X9.8895 Y20.1720
G01 X9.9041 Y20.2372
G01 X9.9168 Y20.3028
G01 X9.9276 Y20.3687
G01 X9.9374 Y20.4352
G01 X9.9442 Y20.5004
G01 X9.9491 Y20.5669
G01 X9.9520 Y20.6335
G01 X9.9530 Y20.7010
G01 X9.9520 Y20.7703
G01 X9.9481 Y20.8409
G01 X9.9432 Y20.9105
G01 X9.9354 Y20.9808
G01 X9.9256 Y21.0499
G01 X9.9129 Y21.1185
G01 X9.8992 Y21.1869
G01 X9.8640 Y21.3230
G01 X9.8425 Y21.3893
G01 X9.8200 Y21.4559
G01 X9.7946 Y21.5215
G01 X9.7677 Y21.5871
G01 X9.7598 Y21.6095
G01 X9.7582 Y21.6153
G01 X9.7572 Y21.6213
G01 X9.7552 Y21.6423
G01 X9.7551 Y21.6501
G01 X9.7567 Y21.6710
G01 X9.7617 Y21.6909
G01 X9.7636 Y21.6966
G01 X9.7713 Y21.7155
G01 X9.7814 Y21.7322
G01 X9.7944 Y21.7495
G01 X9.7986 Y21.7544
G01 X15.9956 Y27.9504
G01 X16.0092 Y27.9629
G01 X16.0135 Y27.9664
G01 X16.0182 Y27.9694
G01 X16.0322 Y27.9774
G01 X16.0384 Y27.9804
G01 X16.0534 Y27.9864
G01 X16.0591 Y27.9883
G01 X16.0790 Y27.9933
G01 X16.1030 Y27.9950
G01 X27.5253 Y27.9949
G01 X27.5403 Y27.9939
G01 X27.5475 Y27.9929
G01 X27.5615 Y27.9899
G01 X27.5696 Y27.9874
G01 X27.5846 Y27.9814
G01 X27.5912 Y27.9782
G01 X27.6065 Y27.9691
G01 X27.6230 Y27.9574
G01 X27.6294 Y27.9510
G01 X27.6703 Y27.9023
G01 X27.7038 Y27.8669
G01 X27.7389 Y27.8318
G01 X27.7743 Y27.7983
G01 X27.8107 Y27.7677
G01 X27.8491 Y27.7370
G01 X27.8881 Y27.7094
G01 X27.9299 Y27.6821
G01 X27.9711 Y27.6563
G01 X28.0141 Y27.6333
G01 X28.0578 Y27.6110
G01 X28.1018 Y27.5909
G01 X28.1627 Y27.5660
G01 X28.1672 Y27.5638
G01 X28.1715 Y27.5611
G01 X28.1845 Y27.5521
G01 X28.1896 Y27.5480
G01 X28.2006 Y27.5380
G01 X28.2054 Y27.5330
G01 X28.2154 Y27.5210
G01 X28.2184 Y27.5170
G01 X28.2210 Y27.5127
G01 X28.2280 Y27.4997
G01 X28.2360 Y27.4817
G01 X28.2383 Y27.4749
G01 X28.2423 Y27.4599
G01 X28.2439 Y27.4503
G01 X28.2449 Y27.4353
G01 X28.2449 Y27.4289
G01 X28.2439 Y27.4129
G01 X28.2423 Y27.4031
G01 X28.2383 Y27.3881
G01 X28.2360 Y27.3813
G01 X28.2280 Y27.3633
G01 X28.2210 Y27.3503
G01 X28.2184 Y27.3460
G01 X28.2154 Y27.3420
G01 X28.2054 Y27.3300
G01 X28.2006 Y27.3250
G01 X28.1896 Y27.3150
G01 X28.1845 Y27.3109
G01 X28.1715 Y27.3019
G01 X28.1672 Y27.2992
G01 X28.1627 Y27.2970
G01 X28.1018 Y27.2721
G01 X28.0578 Y27.2520
G01 X28.0141 Y27.2297
G01 X27.9711 Y27.2067
G01 X27.9299 Y27.1809
G01 X27.8881 Y27.1536
G01 X27.8491 Y27.1260
G01 X27.8107 Y27.0953
G01 X27.7743 Y27.0647
G01 X27.7389 Y27.0312
G01 X27.7038 Y26.9961
G01 X27.6703 Y26.9607
G01 X27.6294 Y26.9120
G01 X27.6230 Y26.9056
G01 X27.6065 Y26.8939
G01 X27.5912 Y26.8848
G01 X27.5846 Y26.8816
G01 X27.5696 Y26.8756
G01 X27.5615 Y26.8731
G01 X27.5475 Y26.8701
G01 X27.5403 Y26.8691
G01 X27.5253 Y26.8681
G01 X18.2886 Y26.8680
G01 X18.2505 Y26.8670
G01 X18.2131 Y26.8642
G01 X18.1766 Y26.8596
G01 X18.1402 Y26.8530
G01 X18.1053 Y26.8448
G01 X18.0696 Y26.8335
G01 X18.0343 Y26.8214
G01 X17.9661 Y26.7911
G01 X17.9344 Y26.7739
G01 X17.9033 Y26.7541
G01 X17.8726 Y26.7337
G01 X17.8145 Y26.6868
G01 X8.8004 Y17.6726
G01 X8.7955 Y17.6684
G01 X8.7782 Y17.6554
G01 X8.7615 Y17.6453
G01 X8.7426 Y17.6376
G01 X8.7369 Y17.6357
G01 X8.7170 Y17.6307
G01 X8.6961 Y17.6291
G01 X8.6883 Y17.6292
G01 X8.6673 Y17.6312
G01 X8.6613 Y17.6322
G01 X8.6555 Y17.6338
G01 X8.6331 Y17.6417
G01 X8.5675 Y17.6686
G01 X8.5019 Y17.6940
G01 X8.4353 Y17.7165
G01 X8.3690 Y17.7380
G01 X8.2329 Y17.7732
G01 X8.1645 Y17.7869
G01 X8.0959 Y17.7996
G01 X8.0268 Y17.8094
G01 X7.9565 Y17.8172
G01 X7.8869 Y17.8221
G01 X7.8163 Y17.8260
G01 X7.7470 Y17.8270
G01 X7.6795 Y17.8260
G01 X7.6129 Y17.8231
G01 X7.5464 Y17.8182
G01 X7.4812 Y17.8114
G01 X7.4147 Y17.8016
G01 X7.3488 Y17.7908
G01 X7.2832 Y17.7781
G01 X7.2180 Y17.7635
G01 X7.1536 Y17.7459
G01 X7.0897 Y17.7272
G01 X7.0265 Y17.7068
G01 X6.9640 Y17.6834
G01 X6.9021 Y17.6588
G01 X6.8404 Y17.6324
G01 X6.7801 Y17.6041
G01 X6.7212 Y17.5737
G01 X6.6625 Y17.5424
G01 X6.6049 Y17.5083
G01 X6.5480 Y17.4729
G01 X6.4933 Y17.4368
G01 X6.4387 Y17.3977
G01 X6.3859 Y17.3577
G01 X6.3339 Y17.3155
G01 X6.2833 Y17.2727
G01 X6.2344 Y17.2267
G01 X6.1864 Y17.1806
G01 X6.1403 Y17.1326
G01 X6.0943 Y17.0837
G01 X6.0515 Y17.0331
G01 X6.0093 Y16.9811
G01 X5.9693 Y16.9283
G01 X5.9302 Y16.8737
G01 X5.8941 Y16.8190
G01 X5.8587 Y16.7621
G01 X5.8246 Y16.7045
G01 X5.7933 Y16.6458
